LUTs/Resolve/GSRT_down_size-33_resolve.cube
# This LUT implements the HLG-SDR conversion with using Gamut Squeeze
# Described in the thesis "Evaluation of colour recreation in round-trip conversion" 
# author: Lasse Bickelmann 
# lut-type: III
# input: BT.2100/HLG 
# output: BT.709/SDR 
# tonemapping: a = 0.5, b=5, c=1.22
# gma_wminde: dL= 1.2, dC=1.6, dH=1.1
# EOTF^(-1)_sbswc: a=40, b=44, c=0.1
TITLE "GSRT_down"
LUT_3D_SIZE 33
LUT_IN_VIDEO_RANGE
LUT_OUT_VIDEO_RANGE
0.0625611 0.0625611 0.0625611
0.0625611 0.0625611 0.0625611
0.0625611 0.0625611 0.0625611
0.0625611 0.0625611 0.0625611
0.0625611 0.0625611 0.0625611
0.2203421 0.0586891 0.1373879
0.3202552 0.0562371 0.1850044
0.3286362 0.0560315 0.1457711
0.3529539 0.0554347 0.0872143
0.3947408 0.0544092 0.0567995
0.4456653 0.0531595 0.0559162
0.4940795 0.0520542 0.0550659
0.5361981 0.0555946 0.0539201
0.5802995 0.1227844 0.0528296
0.6243823 0.1703826 0.0517489
0.6567473 0.0532014 0.0517591
0.6807969 0.0473892 0.0518379
0.7084547 0.0467105 0.0513582
0.7473135 0.0457569 0.0506842
0.7888865 0.0447367 0.0499631
0.8265231 0.0438130 0.0499782
0.8582442 0.0430346 0.0503869
0.8869968 0.0423290 0.0508024
0.9116192 0.0417247 0.0511403
0.9295781 0.0411613 0.0514301
0.9381467 0.0406574 0.0516847
0.9438814 0.0401725 0.0519107
0.9480767 0.0397155 0.0520047
0.9513680 0.0392813 0.0520635
0.9540673 0.0388660 0.0520732
0.9563503 0.0384670 0.0521243
0.9564121 0.0384555 0.0515912
0.9564117 0.0384556 0.0509837
0.0625611 0.0625611 0.0625611
0.0625611 0.0625611 0.0625611
0.0625611 0.0625611 0.0625611
0.0625611 0.0625611 0.0625611
0.1799919 0.0596793 0.1180401
0.2345908 0.0583394 0.1189427
0.2640711 0.0576159 0.0603164
0.3113331 0.0564561 0.0582462
0.3598227 0.0554841 0.0573777
0.4039317 0.0584238 0.0562878
0.4472247 0.1200799 0.0552689
0.4899906 0.1525969 0.0542680
0.5313079 0.1767661 0.0533152
0.5760694 0.2002087 0.0522906
0.6201810 0.2213198 0.0512934
0.6479032 0.0552868 0.0518125
0.6810118 0.0477835 0.0517838
0.7129673 0.0465998 0.0512799
0.7521717 0.0456377 0.0505999
0.7929387 0.0446372 0.0498928
0.8275885 0.0437869 0.0492918
0.8591396 0.0430126 0.0496702
0.8869881 0.0423292 0.0501451
0.9123195 0.0417075 0.0505489
0.9295758 0.0411614 0.0509203
0.9383470 0.0406428 0.0512215
0.9440217 0.0401588 0.0514347
0.9481840 0.0397025 0.0516351
0.9514545 0.0392688 0.0518025
0.9541396 0.0388541 0.0518181
0.9564122 0.0384555 0.0518735
0.9564119 0.0384556 0.0513226
0.9564117 0.0384556 0.0509021
0.0625611 0.0625611 0.0625611
0.0625611 0.0625611 0.0625611
0.0625611 0.0625611 0.0625611
0.1140913 0.0612965 0.0874309
0.1818801 0.0596329 0.0984080
0.2176665 0.0587547 0.0598708
0.2660638 0.0575670 0.0590314
0.3133013 0.0590294 0.0579777
0.3576701 0.1044688 0.0569788
0.4022873 0.1317519 0.0559903
0.4463445 0.1546074 0.0550065
0.4879708 0.1745994 0.0540762
0.5301893 0.1950950 0.0531195
0.5745690 0.2146558 0.0521320
0.6195368 0.2337119 0.0511380
0.6455021 0.0566630 0.0518028
0.6800492 0.0487138 0.0516942
0.7144804 0.0465626 0.0512537
0.7538007 0.0455977 0.0505717
0.7942663 0.0446046 0.0498698
0.8275885 0.0437869 0.0492918
0.8591358 0.0430127 0.0494688
0.8877724 0.0423099 0.0499088
0.9123176 0.0417076 0.0503780
0.9299102 0.0411456 0.0507030
0.9383465 0.0406428 0.0510220
0.9440215 0.0401588 0.0513318
0.9481838 0.0397025 0.0515314
0.9514544 0.0392689 0.0515982
0.9541395 0.0388541 0.0517189
0.9564122 0.0384555 0.0517778
0.9564119 0.0384556 0.0513226
0.9564116 0.0384556 0.0508217
0.0625611 0.0625611 0.0625611
0.0608991 0.0940424 0.0815599
0.0898322 0.0966999 0.0613119
0.1246932 0.0980277 0.0609654
0.1703390 0.1012687 0.0602655
0.2184059 0.1082724 0.0593945
0.2651464 0.1177512 0.0584986
0.3109551 0.1301273 0.0575812
0.3559941 0.1438075 0.0566607
0.4004136 0.1587250 0.0557345
0.4443189 0.1748074 0.0548006
0.4868489 0.1920983 0.0538710
0.5289565 0.2090856 0.0529504
0.5730256 0.2268951 0.0519848
0.6176470 0.2443814 0.0510140
0.6431738 0.0597193 0.0517771
0.6790770 0.0497293 0.0516069
0.7144804 0.0465626 0.0512537
0.7554343 0.0455576 0.0505433
0.7955828 0.0445723 0.0498470
0.8297317 0.0437343 0.0492547
0.8591318 0.0430128 0.0492523
0.8877696 0.0423100 0.0497100
0.9123149 0.0417077 0.0501355
0.9299093 0.0411456 0.0505234
0.9385451 0.0406281 0.0508935
0.9440212 0.0401589 0.0511322
0.9481836 0.0397026 0.0513300
0.9514543 0.0392689 0.0514989
0.9541394 0.0388541 0.0516215
0.9564121 0.0384555 0.0516837
0.9564119 0.0384556 0.0512359
0.9564116 0.0384556 0.0507425
0.0575862 0.1567952 0.0613050
0.0571792 0.1645045 0.0590878
0.0571210 0.1656072 0.0590502
0.0993211 0.1659714 0.0589370
0.1677685 0.1677685 0.0585826
0.2157685 0.1713845 0.0580724
0.2619153 0.1777867 0.0574066
0.3077328 0.1859198 0.0566506
0.3526448 0.1947897 0.0558615
0.3979106 0.2056472 0.0550114
0.4406565 0.2163817 0.0541916
0.4839806 0.2292746 0.0533194
0.5269224 0.2432213 0.0524324
0.5693137 0.2570564 0.0515548
0.6047772 0.2205413 0.0515578
0.6388621 0.1479166 0.0516405
0.6760055 0.0532759 0.0513852
0.7168508 0.0482117 0.0510112
0.7603641 0.0454366 0.0504578
0.7994675 0.0444770 0.0497796
0.8318487 0.0436823 0.0492180
0.8591218 0.0430130 0.0487449
0.8885466 0.0422909 0.0491799
0.9130132 0.0416905 0.0496084
0.9302361 0.0411300 0.0500812
0.9385439 0.0406282 0.0504417
0.9441602 0.0401451 0.0507230
0.9482902 0.0396895 0.0510049
0.9515403 0.0392565 0.0512643
0.9542114 0.0388422 0.0513869
0.9564120 0.0384555 0.0515002
0.9564118 0.0384556 0.0510665
0.9564115 0.0384556 0.0506644
0.0543326 0.2184251 0.0572506
0.0541096 0.2226491 0.0571067
0.0540540 0.2237034 0.0570708
0.0539984 0.2247569 0.0570349
0.1467154 0.2244722 0.0568230
0.2113687 0.2262385 0.0564685
0.2603896 0.2298813 0.0560021
0.3073501 0.2364106 0.0553899
0.3517626 0.2436948 0.0547331
0.3942759 0.2517810 0.0540453
0.4381265 0.2617515 0.0532756
0.4804572 0.2715372 0.0525153
0.5224332 0.2833392 0.0517062
0.5651170 0.2949607 0.0508859
0.5938803 0.2312543 0.0515871
0.6314662 0.1970358 0.0513828
0.6708288 0.1530278 0.0510326
0.7127035 0.0545405 0.0506199
0.7618235 0.0485815 0.0500816
0.8057658 0.0444201 0.0496578
0.8370313 0.0435552 0.0491281
0.8644804 0.0428815 0.0486520
0.8893136 0.0422721 0.0482310
0.9137061 0.0416735 0.0488437
0.9305552 0.0411144 0.0493473
0.9387386 0.0406137 0.0497795
0.9442976 0.0401315 0.0501041
0.9483956 0.0396766 0.0504451
0.9515398 0.0392565 0.0507285
0.9542110 0.0388423 0.0509438
0.9564118 0.0384556 0.0510665
0.9564116 0.0384556 0.0507425
0.9564114 0.0384557 0.0504367
0.0513666 0.2746072 0.0553364
0.0512043 0.2776811 0.0552317
0.0511503 0.2787048 0.0551968
0.0510963 0.2797279 0.0551620
0.0550494 0.2811311 0.0550143
0.1903997 0.2809014 0.0547762
0.2533751 0.2836547 0.0543922
0.3033928 0.2872658 0.0539481
0.3492749 0.2927353 0.0534142
0.3935590 0.2990290 0.0528262
0.4358794 0.3071817 0.0521755
0.4784939 0.3161810 0.0514782
0.5184107 0.3187717 0.0509507
0.5475314 0.2790263 0.0514542
0.5853517 0.2595139 0.0512709
0.6258712 0.2396258 0.0509520
0.6660810 0.2189378 0.0505535
0.7103851 0.1862021 0.0500991
0.7592242 0.1170785 0.0495508
0.8033319 0.0506669 0.0491091
0.8393606 0.0457438 0.0488253
0.8688361 0.0427747 0.0485764
0.8931810 0.0421772 0.0481542
0.9150905 0.0416395 0.0477741
0.9308668 0.0410989 0.0483706
0.9391222 0.0405847 0.0488917
0.9444334 0.0401179 0.0493581
0.9485003 0.0396637 0.0497973
0.9517102 0.0392318 0.0501023
0.9542824 0.0388304 0.0504200
0.9564115 0.0384556 0.0505874
0.9564113 0.0384557 0.0503629
0.9564111 0.0384557 0.0500774
0.0484782 0.3293201 0.0534723
0.0483724 0.3313235 0.0534040
0.0483196 0.3323247 0.0533699
0.0482667 0.3333255 0.0533358
0.0481611 0.3353260 0.0532677
0.1227952 0.3361236 0.0530239
0.2331708 0.3369028 0.0527427
0.2933237 0.3385868 0.0524049
0.3442887 0.3421619 0.0519730
0.3901360 0.3475892 0.0514648
0.4333856 0.3538712 0.0509145
0.4664008 0.3296433 0.0512615
0.5021666 0.3137978 0.0512641
0.5383163 0.3024007 0.0510816
0.5784568 0.2921831 0.0507590
0.6206735 0.2807530 0.0503685
0.6615590 0.2667296 0.0499788
0.7053433 0.2489327 0.0495289
0.7551234 0.2233115 0.0489831
0.8020771 0.1781687 0.0485123
0.8389506 0.0545760 0.0482372
0.8690570 0.0475106 0.0480732
0.8962323 0.0431191 0.0479755
0.9185522 0.0415546 0.0477141
0.9317778 0.0410523 0.0473591
0.9394964 0.0405558 0.0479129
0.9447027 0.0400907 0.0484981
0.9487079 0.0396379 0.0489627
0.9517943 0.0392195 0.0493798
0.9542818 0.0388305 0.0497700
0.9564111 0.0384557 0.0500084
0.9564110 0.0384557 0.0498730
0.9564109 0.0384557 0.0497411
0.0457002 0.3819405 0.0516795
0.0455963 0.3839083 0.0516124
0.0455444 0.3848918 0.0515789
0.0455444 0.3848918 0.0515789
0.0453888 0.3878404 0.0514784
0.0489256 0.3892106 0.0513315
0.1852553 0.3900142 0.0510735
0.2735839 0.3907826 0.0507874
0.3323918 0.3934164 0.0504247
0.3738015 0.3643432 0.0510826
0.4153854 0.3537677 0.0510743
0.4550298 0.3459006 0.0509369
0.4944790 0.3397189 0.0506986
0.5330918 0.3331415 0.0504287
0.5727822 0.3260445 0.0501093
0.6143215 0.3182515 0.0497316
0.6571699 0.3095822 0.0493029
0.7033650 0.2984648 0.0488164
0.7527725 0.2816713 0.0483057
0.7996079 0.2570386 0.0478563
0.8364916 0.2163373 0.0476244
0.8683702 0.1345967 0.0474893
0.8954517 0.0494966 0.0474160
0.9203097 0.0442001 0.0473681
0.9332032 0.0409748 0.0473043
0.9400432 0.0405126 0.0469776
0.9449670 0.0400636 0.0474954
0.9488099 0.0396251 0.0481040
0.9517933 0.0392196 0.0485636
0.9542812 0.0388306 0.0490186
0.9564106 0.0384558 0.0493648
0.9564106 0.0384558 0.0493648
0.9564106 0.0384558 0.0493048
0.0430187 0.4327340 0.0499489
0.0437368 0.4191315 0.0504123
0.0438396 0.4171841 0.0504787
0.0439425 0.4152356 0.0505450
0.0440969 0.4123109 0.0506447
0.0443030 0.4084074 0.0507777
0.0550655 0.4013745 0.0508073
0.2347559 0.3953030 0.0507711
0.3045258 0.3891672 0.0507049
0.3572078 0.3838938 0.0505845
0.4033452 0.3794666 0.0504055
0.4461047 0.3748647 0.0501980
0.4883207 0.3710432 0.0499203
0.5275335 0.3659505 0.0496596
0.5680732 0.3615347 0.0493233
0.6102869 0.3556496 0.0489592
0.6527039 0.3492198 0.0485594
0.6983722 0.3409064 0.0481086
0.7504224 0.3301195 0.0475583
0.7982551 0.3116317 0.0471337
0.8349229 0.2827491 0.0469504
0.8667380 0.2426060 0.0468598
0.8945782 0.1792348 0.0468303
0.9195359 0.0516372 0.0468358
0.9330973 0.0451264 0.0468538
0.9402108 0.0409616 0.0469095
0.9450966 0.0400501 0.0466508
0.9488082 0.0396253 0.0471246
0.9517923 0.0392198 0.0477213
0.9546341 0.0387713 0.0482660
0.9564101 0.0384559 0.0486897
0.9564102 0.0384559 0.0487956
0.9564102 0.0384559 0.0487956
0.0435314 0.4230231 0.0502797
0.0435314 0.4230231 0.0502797
0.0435314 0.4230231 0.0502797
0.0435314 0.4230231 0.0502797
0.0434800 0.4239954 0.0502466
0.0434800 0.4239954 0.0502466
0.0469402 0.4234018 0.0501694
0.1787408 0.4203308 0.0500414
0.2759618 0.4171999 0.0498957
0.3386778 0.4140049 0.0497249
0.3907025 0.4107159 0.0495285
0.4371002 0.4072971 0.0493092
0.4804157 0.4037189 0.0490654
0.5223510 0.4009374 0.0487647
0.5629994 0.3969382 0.0484683
0.6059800 0.3926334 0.0481136
0.6493444 0.3879480 0.0477213
0.6961393 0.3816773 0.0472798
0.7479340 0.3734927 0.0467626
0.7955401 0.3579414 0.0463881
0.8332077 0.3334066 0.0462435
0.8649823 0.3007805 0.0462186
0.8928546 0.2593819 0.0462411
0.9186232 0.2005061 0.0462729
0.9329470 0.0537066 0.0463371
0.9401020 0.0457978 0.0464173
0.9458414 0.0409338 0.0464753
0.9488068 0.0396254 0.0463506
0.9517910 0.0392200 0.0468084
0.9547724 0.0387478 0.0474927
0.9564095 0.0384560 0.0479687
0.9564096 0.0384560 0.0481489
0.9564097 0.0384560 0.0482897
0.0422012 0.4482188 0.0494213
0.0422012 0.4482188 0.0494213
0.0421502 0.4491845 0.0493884
0.0421502 0.4491845 0.0493884
0.0420993 0.4501500 0.0493555
0.0420483 0.4511152 0.0493226
0.0419464 0.4530450 0.0492568
0.0515430 0.4509553 0.0491148
0.2361186 0.4488598 0.0489456
0.3152648 0.4457436 0.0487901
0.3736985 0.4435179 0.0485844
0.4245427 0.4412103 0.0483539
0.4704208 0.4378146 0.0481349
0.5143998 0.4352547 0.0478576
0.5563962 0.4325258 0.0475605
0.6000950 0.4286098 0.0472398
0.6443218 0.4244089 0.0468788
0.6921712 0.4198074 0.0464437
0.7436489 0.4136220 0.0459543
0.7926258 0.4000017 0.0456039
0.8313132 0.3780640 0.0454927
0.8630731 0.3492381 0.0455244
0.8917443 0.3144626 0.0455954
0.9168626 0.2706293 0.0457110
0.9324781 0.2111439 0.0458097
0.9399755 0.0553286 0.0459296
0.9457484 0.0455636 0.0460180
0.9496806 0.0407434 0.0461195
0.9525325 0.0391092 0.0459857
0.9549094 0.0387243 0.0466461
0.9564088 0.0384561 0.0472173
0.9564091 0.0384561 0.0475136
0.9564092 0.0384561 0.0477133
0.0406771 0.4770881 0.0484377
0.0406265 0.4780469 0.0484050
0.0406265 0.4780469 0.0484050
0.0405759 0.4790055 0.0483723
0.0405759 0.4790055 0.0483723
0.0404747 0.4809219 0.0483070
0.0403736 0.4828375 0.0482418
0.0440512 0.4832510 0.0481214
0.1582825 0.4811959 0.0479629
0.2815327 0.4790886 0.0477920
0.3524993 0.4769449 0.0475973
0.4090474 0.4747297 0.0473850
0.4590249 0.4724308 0.0471520
0.5053999 0.4700289 0.0468967
0.5481398 0.4674902 0.0466310
0.5936820 0.4648232 0.0463052
0.6389086 0.4619532 0.0459472
0.6878811 0.4578236 0.0455423
0.7406479 0.4522742 0.0450825
0.7894659 0.4401177 0.0447718
0.8282228 0.4193977 0.0447157
0.8609779 0.3924796 0.0447920
0.8897466 0.3598611 0.0449391
0.9156539 0.3218018 0.0451052
0.9319571 0.2759202 0.0452685
0.9400060 0.2140858 0.0454248
0.9455176 0.0541885 0.0455696
0.9495995 0.0451256 0.0456905
0.9527492 0.0402102 0.0458219
0.9551127 0.0386891 0.0457582
0.9564080 0.0384563 0.0464332
0.9564085 0.0384562 0.0468537
0.9564087 0.0384561 0.0471475
0.0390630 0.5076622 0.0473960
0.0390128 0.5086142 0.0473635
0.0390128 0.5086142 0.0473635
0.0389625 0.5095659 0.0473311
0.0389123 0.5105175 0.0472987
0.0388621 0.5114689 0.0472663
0.0387617 0.5133711 0.0472015
0.0386111 0.5162228 0.0471043
0.0479188 0.5151652 0.0469183
0.2314255 0.5131086 0.0467550
0.3242212 0.5110152 0.0465747
0.3896928 0.5098236 0.0463450
0.4448159 0.5076184 0.0461279
0.4940894 0.5053299 0.0458936
0.5390623 0.5029351 0.0456475
0.5854841 0.5004547 0.0453524
0.6329215 0.4978317 0.0450114
0.6817243 0.4940399 0.0446475
0.7357463 0.4899392 0.0441916
0.7859977 0.4788980 0.0438998
0.8248827 0.4580368 0.0439159
0.8586906 0.4313645 0.0440522
0.8875785 0.4007543 0.0442510
0.9143135 0.3649014 0.0444778
0.9313728 0.3240182 0.0447077
0.9398313 0.2756471 0.0449121
0.9452695 0.2079305 0.0451097
0.9494134 0.0524800 0.0452758
0.9526791 0.0441896 0.0454221
0.9553004 0.0393765 0.0455751
0.9564072 0.0384564 0.0456027
0.9564078 0.0384563 0.0461555
0.9564082 0.0384563 0.0465641
0.0374090 0.5389938 0.0463285
0.0373583 0.5399530 0.0462958
0.0373583 0.5399530 0.0462958
0.0373075 0.5409153 0.0462630
0.0372565 0.5418809 0.0462301
0.0372054 0.5428498 0.0461971
0.0371026 0.5447974 0.0461307
0.0369471 0.5477434 0.0460303
0.0410887 0.5482109 0.0458944
0.0608470 0.5470460 0.0457124
0.2850938 0.5458746 0.0455126
0.3633223 0.5436971 0.0453358
0.4262177 0.5424817 0.0451000
0.4791184 0.5402523 0.0448865
0.5278361 0.5379744 0.0446518
0.5754181 0.5356249 0.0443846
0.6238125 0.5331813 0.0440726
0.6750651 0.5306025 0.0436974
0.7304212 0.5268463 0.0432693
0.7821765 0.5157758 0.0430185
0.8222356 0.4950079 0.0430804
0.8561652 0.4686714 0.0432772
0.8859831 0.4379190 0.0435436
0.9121567 0.4036263 0.0438391
0.9304002 0.3655181 0.0441285
0.9392603 0.3221937 0.0443980
0.9450012 0.2702972 0.0446353
0.9492157 0.1934988 0.0448530
0.9525244 0.0501924 0.0450370
0.9552394 0.0429214 0.0452009
0.9563878 0.0394968 0.0453980
0.9564071 0.0384564 0.0455244
0.9564075 0.0384564 0.0459276
0.0355888 0.5734706 0.0451538
0.0355322 0.5745444 0.0451172
0.0355322 0.5745444 0.0451172
0.0355322 0.5745444 0.0451172
0.0354753 0.5756218 0.0450805
0.0353610 0.5777870 0.0450067
0.0352459 0.5799663 0.0449325
0.0351301 0.5821599 0.0448577
0.0353195 0.5855243 0.0447313
0.0444482 0.5841579 0.0445548
0.2179106 0.5827377 0.0443786
0.3286245 0.5813066 0.0441876
0.4018917 0.5787849 0.0440134
0.4618245 0.5773197 0.0437864
0.5139511 0.5747398 0.0435824
0.5631865 0.5731888 0.0433193
0.6139001 0.5705633 0.0430376
0.6677729 0.5678864 0.0426877
0.7246048 0.5640520 0.0422961
0.7767498 0.5527988 0.0421000
0.8182681 0.5318241 0.0422097
0.8525458 0.5046162 0.0424872
0.8834436 0.4733769 0.0428208
0.9098426 0.4395196 0.0431811
0.9296407 0.4024256 0.0435279
0.9388284 0.3618837 0.0438559
0.9444426 0.3170215 0.0441554
0.9491038 0.2586984 0.0444074
0.9524419 0.1663669 0.0446376
0.9551082 0.0477769 0.0448435
0.9563333 0.0427808 0.0450559
0.9563678 0.0406389 0.0452695
0.9563932 0.0392049 0.0454325
0.0336806 0.6096158 0.0439223
0.0336806 0.6096158 0.0439223
0.0336178 0.6108061 0.0438817
0.0336178 0.6108061 0.0438817
0.0335548 0.6120002 0.0438410
0.0334915 0.6131981 0.0438002
0.0333644 0.6156053 0.0437182
0.0332366 0.6180278 0.0436357
0.0330432 0.6216903 0.0435109
0.0375416 0.6222024 0.0433621
0.0505310 0.6205517 0.0432009
0.2786715 0.6201025 0.0429873
0.3705607 0.6184219 0.0428014
0.4380082 0.6155205 0.0426433
0.4956242 0.6138025 0.0424276
0.5485191 0.6120614 0.0421895
0.6016328 0.6103154 0.0419064
0.6568721 0.6073774 0.0415999
0.7166126 0.6043849 0.0412091
0.7706949 0.5935411 0.0410379
0.8138005 0.5707729 0.0412387
0.8493610 0.5421534 0.0416003
0.8798152 0.5105977 0.0420148
0.9079612 0.4752860 0.0424582
0.9287587 0.4377227 0.0428909
0.9383491 0.3977636 0.0432946
0.9445314 0.3543427 0.0436450
0.9488782 0.3048373 0.0439588
0.9522698 0.2412611 0.0442351
0.9550393 0.0834534 0.0444757
0.9562772 0.0470672 0.0447248
0.9563186 0.0437893 0.0449669
0.9563498 0.0417255 0.0451568
0.0316377 0.6483138 0.0426038
0.0315684 0.6496255 0.0425591
0.0315684 0.6496255 0.0425591
0.0315684 0.6496255 0.0425591
0.0314990 0.6509412 0.0425143
0.0314293 0.6522610 0.0424693
0.0312893 0.6549128 0.0423790
0.0311484 0.6575810 0.0422880
0.0310067 0.6602657 0.0421966
0.0312117 0.6643779 0.0420428
0.0396913 0.6625025 0.0418890
0.1611301 0.6619260 0.0416912
0.3218839 0.6599974 0.0415258
0.4060697 0.6580619 0.0413466
0.4715351 0.6561064 0.0411555
0.5294231 0.6554570 0.0409006
0.5852590 0.6534930 0.0406529
0.6433713 0.6502485 0.0403841
0.7061352 0.6482976 0.0399903
0.7626022 0.6370235 0.0398668
0.8075379 0.6147457 0.0400978
0.8446489 0.5846337 0.0405500
0.8764017 0.5512529 0.0410656
0.9042650 0.5153772 0.0416025
0.9272385 0.4774760 0.0421136
0.9377501 0.4369421 0.0426081
0.9440258 0.3934949 0.0430665
0.9486226 0.3463740 0.0434554
0.9520776 0.2930450 0.0437841
0.9548877 0.2216049 0.0440665
0.9562106 0.0570104 0.0443553
0.9562616 0.0485656 0.0446363
0.9563009 0.0450942 0.0448621
0.0293131 0.6923466 0.0411035
0.0292367 0.6937929 0.0410543
0.0292367 0.6937929 0.0410543
0.0292367 0.6937929 0.0410543
0.0291601 0.6952435 0.0410048
0.0290833 0.6966984 0.0409553
0.0290063 0.6981578 0.0409055
0.0288515 0.7010897 0.0408057
0.0286958 0.7040392 0.0407052
0.0284605 0.7084968 0.0405533
0.0319799 0.7089161 0.0404322
0.0417680 0.7082150 0.0402447
0.2277979 0.7074822 0.0400532
0.3564867 0.7052760 0.0398949
0.4361234 0.7045167 0.0396803
0.5011089 0.7022772 0.0395002
0.5613515 0.7015138 0.0392404
0.6250684 0.6993651 0.0389568
0.6896851 0.6957799 0.0386570
0.7518832 0.6870164 0.0384737
0.7992044 0.6629671 0.0387992
0.8381967 0.6313536 0.0393438
0.8715131 0.5960330 0.0399669
0.9006453 0.5590292 0.0405943
0.9252982 0.5196188 0.0412183
0.9367767 0.4793888 0.0417935
0.9435472 0.4370145 0.0423239
0.9482969 0.3918230 0.0427991
0.9518452 0.3419181 0.0432249
0.9547839 0.2823949 0.0435887
0.9561280 0.2180347 0.0439274
0.9561925 0.1342674 0.0442592
0.9562422 0.0508100 0.0445275
0.0268238 0.7394982 0.0394970
0.0268238 0.7394982 0.0394970
0.0267568 0.7407669 0.0394538
0.0267568 0.7407669 0.0394538
0.0267568 0.7407669 0.0394538
0.0266904 0.7420246 0.0394109
0.0266246 0.7432717 0.0393685
0.0264946 0.7457347 0.0392845
0.0263667 0.7481573 0.0392020
0.0262408 0.7505412 0.0391208
0.0261169 0.7528878 0.0390408
0.0322225 0.7531540 0.0388562
0.0432098 0.7522747 0.0386801
0.2582428 0.7513707 0.0384978
0.3774628 0.7492971 0.0383403
0.4561014 0.7483439 0.0381374
0.5221043 0.7473618 0.0379174
0.5914306 0.7452166 0.0376658
0.6632006 0.7430138 0.0373414
0.7356875 0.7407016 0.0369509
0.7883927 0.7155932 0.0373330
0.8296798 0.6825061 0.0379697
0.8648931 0.6451428 0.0387052
0.8956078 0.6058578 0.0394535
0.9221738 0.5659631 0.0401663
0.9355410 0.5253172 0.0408284
0.9428054 0.4821713 0.0414706
0.9477893 0.4381349 0.0420332
0.9515557 0.3913131 0.0425322
0.9545686 0.3386516 0.0429788
0.9560223 0.2838428 0.0434201
0.9561049 0.2357909 0.0438129
0.9561688 0.1760148 0.0441350
0.0248659 0.7765857 0.0382334
0.0248659 0.7765857 0.0382334
0.0248132 0.7775830 0.0381994
0.0248132 0.7775830 0.0381994
0.0248132 0.7775830 0.0381994
0.0247609 0.7785742 0.0381657
0.0247609 0.7785742 0.0381657
0.0246572 0.7805389 0.0380987
0.0245547 0.7824803 0.0380326
0.0244534 0.7843992 0.0379672
0.0243532 0.7862963 0.0379026
0.0247626 0.7881741 0.0378222
0.0321581 0.7872512 0.0376512
0.0437043 0.7863035 0.0374838
0.2692024 0.7853300 0.0373097
0.3844957 0.7843277 0.0371274
0.4635698 0.7832929 0.0369351
0.5392196 0.7821914 0.0366902
0.6161542 0.7800591 0.0364067
0.6921508 0.7777910 0.0360628
0.7717252 0.7753093 0.0356324
0.8175286 0.7406049 0.0363564
0.8560603 0.7002138 0.0372284
0.8887254 0.6583897 0.0381087
0.9175748 0.6158622 0.0389573
0.9337137 0.5735070 0.0397416
0.9418836 0.5297878 0.0404807
0.9472822 0.4861574 0.0411291
0.9512058 0.4395698 0.0417403
0.9543076 0.3912241 0.0422606
0.9558767 0.3420570 0.0427808
0.9559908 0.2984436 0.0432765
0.9560779 0.2535916 0.0436816
0.0232746 0.8067272 0.0372065
0.0232304 0.8075642 0.0371779
0.0232304 0.8075642 0.0371779
0.0232304 0.8075642 0.0371779
0.0232304 0.8075642 0.0371779
0.0232304 0.8075642 0.0371779
0.0232304 0.8075642 0.0371779
0.0230991 0.8100521 0.0370932
0.0230125 0.8116923 0.0370373
0.0229695 0.8125069 0.0370095
0.0228840 0.8141255 0.0369544
0.0227993 0.8157303 0.0368997
0.0242647 0.8172841 0.0367978
0.0314064 0.8163359 0.0366406
0.0422299 0.8153706 0.0364854
0.2557067 0.8143777 0.0363219
0.3773615 0.8133567 0.0361518
0.4655623 0.8122726 0.0359504
0.5527583 0.8110496 0.0356757
0.6351342 0.8088963 0.0353719
0.7176565 0.8065388 0.0349966
0.8001477 0.8039336 0.0345513
0.8437146 0.7613358 0.0355311
0.8796826 0.7158377 0.0365711
0.9105234 0.6704289 0.0375649
0.9312793 0.6252046 0.0384949
0.9407184 0.5797846 0.0393548
0.9465333 0.5354564 0.0401124
0.9506813 0.4890828 0.0408271
0.9539197 0.4421406 0.0414446
0.9556871 0.3962511 0.0420298
0.9558349 0.3554896 0.0426083
0.9559515 0.3148539 0.0431016
0.0219112 0.8325530 0.0363265
0.0219112 0.8325530 0.0363265
0.0219112 0.8325530 0.0363265
0.0219112 0.8325530 0.0363265
0.0219112 0.8325530 0.0363265
0.0219112 0.8325530 0.0363265
0.0217957 0.8347404 0.0362520
0.0217575 0.8354644 0.0362273
0.0216815 0.8369048 0.0361783
0.0216436 0.8376212 0.0361539
0.0215684 0.8390468 0.0361053
0.0214936 0.8404627 0.0360570
0.0214565 0.8411671 0.0360330
0.0232286 0.8424918 0.0359298
0.0299356 0.8415474 0.0357836
0.0395511 0.8405896 0.0356384
0.2128902 0.8396093 0.0354886
0.3648179 0.8392665 0.0352907
0.4710280 0.8374040 0.0350834
0.5642779 0.8360885 0.0347961
0.6519415 0.8345921 0.0344503
0.7388968 0.8321557 0.0340553
0.8267273 0.8287102 0.0336020
0.8677662 0.7801247 0.0347805
0.9011187 0.7314916 0.0359320
0.9273901 0.6830075 0.0370226
0.9389848 0.6343607 0.0380446
0.9454592 0.5880222 0.0389403
0.9500307 0.5409336 0.0397657
0.9534552 0.4931841 0.0405111
0.9554491 0.4477340 0.0411868
0.9556349 0.4087515 0.0418363
0.9557859 0.3700586 0.0424109
0.0207371 0.8547926 0.0355688
0.0207371 0.8547926 0.0355688
0.0207371 0.8547926 0.0355688
0.0207371 0.8547926 0.0355688
0.0205984 0.8574201 0.0354793
0.0205984 0.8574201 0.0354793
0.0205640 0.8580723 0.0354571
0.0205296 0.8587226 0.0354349
0.0204954 0.8593711 0.0354128
0.0204613 0.8600178 0.0353908
0.0203933 0.8613058 0.0353469
0.0203594 0.8619471 0.0353250
0.0202920 0.8632246 0.0352815
0.0202249 0.8644951 0.0352382
0.0216767 0.8650474 0.0351724
0.0278358 0.8641191 0.0350352
0.0357558 0.8638216 0.0348827
0.0967232 0.8628333 0.0347282
0.3526605 0.8617603 0.0345416
0.4743757 0.8605184 0.0342905
0.5748949 0.8591117 0.0339871
0.6683003 0.8568626 0.0336426
0.7592178 0.8543455 0.0332285
0.8494410 0.8515041 0.0327406
0.8883172 0.7977050 0.0340934
0.9208597 0.7445955 0.0353784
