LUTs/Resolve/GSRT_down_size-33_resolve.cube
# This LUT implements the HLG-SDR conversion with using Gamut Squeeze
# Described in the thesis "Evaluation of colour recreation in round-trip conversion" 
# author: Lasse Bickelmann 
# lut-type: III
# input: BT.2100/HLG 
# output: BT.709/SDR 
# tonemapping: a = 0.5, b=5, c=1.22
# gma_wminde: dL= 1.2, dC=1.6, dH=1.1
# EOTF^(-1)_sbswc: a=40, b=44, c=0.1
TITLE "GSRT_down"
LUT_3D_SIZE 5
LUT_IN_VIDEO_RANGE
LUT_OUT_VIDEO_RANGE
0.0625611 0.0625611 0.0625611
0.3529539 0.0554347 0.0872143
0.6807969 0.0473892 0.0518379
0.9295781 0.0411613 0.0514301
0.9564117 0.0384556 0.0509837
0.0457002 0.3819405 0.0516795
0.3323918 0.3934164 0.0504247
0.6571699 0.3095822 0.0493029
0.9332032 0.0409748 0.0473043
0.9564106 0.0384558 0.0493048
0.0336806 0.6096158 0.0439223
0.0330432 0.6216903 0.0435109
0.6016328 0.6103154 0.0419064
0.9287587 0.4377227 0.0428909
0.9563498 0.0417255 0.0451568
0.0195094 0.8780484 0.0347765
0.0194148 0.8798408 0.0347154
0.0254047 0.8841947 0.0343851
0.8722365 0.8722365 0.0319424
0.9552963 0.4751035 0.0406914
0.0133785 0.9482156 0.0308197
0.0133785 0.9482156 0.0308197
0.0133785 0.9482156 0.0308197
0.0207719 0.9480911 0.0306265
0.9457739 0.9457739 0.0277622
0.0625619 0.0625611 0.2410915
0.3358005 0.0558556 0.2946398
0.6348673 0.0485164 0.3433323
0.9283390 0.0412175 0.3111788
0.9564184 0.0384544 0.1883136
0.0501000 0.2985995 0.2899464
0.3040079 0.3040079 0.3040079
0.6456892 0.2553172 0.3109320
0.9321797 0.0410310 0.2640304
0.9564169 0.0384546 0.1638054
0.0353199 0.5785651 0.2930012
0.0345018 0.5940607 0.2831550
0.5983473 0.5869831 0.2760434
0.9291199 0.4176233 0.2006991
0.9563541 0.0417991 0.0522526
0.0197616 0.8732714 0.0421067
0.0196653 0.8750949 0.0416476
0.0256784 0.8809614 0.0408368
0.8755449 0.8570434 0.0382187
0.9553129 0.4729676 0.0451308
0.0133785 0.9482156 0.0308197
0.0133785 0.9482156 0.0308197
0.0133785 0.9482156 0.0308197
0.0209483 0.9480884 0.0306225
0.9457739 0.9457739 0.0277622
0.0625611 0.0625611 0.4574659
0.3147083 0.0563733 0.4945930
0.6351282 0.0485100 0.5483786
0.9280865 0.0412285 0.5179691
0.9564409 0.0384502 0.3488136
0.0492902 0.3139384 0.4997959
0.2742320 0.3045134 0.5497043
0.6414223 0.2511254 0.5709765
0.9319566 0.0410429 0.4935716
0.9564383 0.0384506 0.3368720
0.0354683 0.5757535 0.5558738
0.0345934 0.5923261 0.5744289
0.5875777 0.5875777 0.5875777
0.9289215 0.4173820 0.4788949
0.9563610 0.0425587 0.3025464
0.0198052 0.8724453 0.4771127
0.0196770 0.8748726 0.4716175
0.0241194 0.8812652 0.4554403
0.8740708 0.8594069 0.4464142
0.9552830 0.4805642 0.2839359
0.0133759 0.9482257 0.0403526
0.0133759 0.9482256 0.0402883
0.0133760 0.9482253 0.0399110
0.0210176 0.9480965 0.0390725
0.9457821 0.9457821 0.0359400
0.0625658 0.0625628 0.8141293
0.0625639 0.0625610 0.8300295
0.5646890 0.0502386 0.8406031
0.9290056 0.0411877 0.8070131
0.9565109 0.0384371 0.5593240
0.0505338 0.2903822 0.8326203
0.0515856 0.2704594 0.8500409
0.5448095 0.2084542 0.8601997
0.9316415 0.0410594 0.8209380
0.9565074 0.0384378 0.5516779
0.0371542 0.5438189 0.8371139
0.0379490 0.5287636 0.8533283
0.4668290 0.5043477 0.8689371
0.9280239 0.4163750 0.8365877
0.9564238 0.0426353 0.5306523
0.0198416 0.8717564 0.8410305
0.0197120 0.8742097 0.8451221
0.0192997 0.8820204 0.8579384
0.8683298 0.8683298 0.8683298
0.9552445 0.4949931 0.5459545
0.0133639 0.9482713 0.5045787
0.0133640 0.9482710 0.5032617
0.0133643 0.9482697 0.4966978
0.0209016 0.9481396 0.4825541
0.9458162 0.9458162 0.4725202
0.0625646 0.0625642 0.9447129
0.0595858 0.1189192 0.9447595
0.2084015 0.2135606 0.9453368
0.6276666 0.0486931 0.9470502
0.9567501 0.0383922 0.9235754
0.0538512 0.2275443 0.9452557
0.0534277 0.2355663 0.9453122
0.1671975 0.2676992 0.9456678
0.6225949 0.1338864 0.9471628
0.9567549 0.0383912 0.9272426
0.0457328 0.3813236 0.9465074
0.0457937 0.3801693 0.9464981
0.0454541 0.3866026 0.9465501
0.6045377 0.3456372 0.9475619
0.9566780 0.0424244 0.9293436
0.0333524 0.6158340 0.9478036
0.0334148 0.6146517 0.9478007
0.0337862 0.6076169 0.9477827
0.5325253 0.5940154 0.9480866
0.9554551 0.4933986 0.9409354
0.0133217 0.9484309 0.9374259
0.0133217 0.9484309 0.9374259
0.0133217 0.9484309 0.9374259
0.0212235 0.9483067 0.9440962
0.9459614 0.9459614 0.9459614
