LUTs/Resolve/GSRT_down_size-33_resolve.cube
# This LUT implements the HLG-SDR conversion with using Gamut Squeeze
# Described in the thesis "Evaluation of colour recreation in round-trip conversion" 
# author: Lasse Bickelmann 
# lut-type: III
# input: BT.2100/HLG 
# output: BT.709/SDR 
# tonemapping: a = 0.5, b=5, c=1.22
# gma_wminde: dL= 1.2, dC=1.6, dH=1.1
# EOTF^(-1)_sbswc: a=40, b=44, c=0.1
TITLE "GSRT_down"
LUT_3D_SIZE 9
LUT_IN_VIDEO_RANGE
LUT_OUT_VIDEO_RANGE
0.0625611 0.0625611 0.0625611
0.0625611 0.0625611 0.0625611
0.3529539 0.0554347 0.0872143
0.5361981 0.0555946 0.0539201
0.6807969 0.0473892 0.0518379
0.8265231 0.0438130 0.0499782
0.9295781 0.0411613 0.0514301
0.9513680 0.0392813 0.0520635
0.9564117 0.0384556 0.0509837
0.0575862 0.1567952 0.0613050
0.1677685 0.1677685 0.0585826
0.3526448 0.1947897 0.0558615
0.5269224 0.2432213 0.0524324
0.6760055 0.0532759 0.0513852
0.8318487 0.0436823 0.0492180
0.9302361 0.0411300 0.0500812
0.9515403 0.0392565 0.0512643
0.9564115 0.0384556 0.0506644
0.0457002 0.3819405 0.0516795
0.0453888 0.3878404 0.0514784
0.3323918 0.3934164 0.0504247
0.4944790 0.3397189 0.0506986
0.6571699 0.3095822 0.0493029
0.8364916 0.2163373 0.0476244
0.9332032 0.0409748 0.0473043
0.9517933 0.0392196 0.0485636
0.9564106 0.0384558 0.0493048
0.0406771 0.4770881 0.0484377
0.0405759 0.4790055 0.0483723
0.1582825 0.4811959 0.0479629
0.4590249 0.4724308 0.0471520
0.6389086 0.4619532 0.0459472
0.8282228 0.4193977 0.0447157
0.9319571 0.2759202 0.0452685
0.9527492 0.0402102 0.0458219
0.9564087 0.0384561 0.0471475
0.0336806 0.6096158 0.0439223
0.0335548 0.6120002 0.0438410
0.0330432 0.6216903 0.0435109
0.3705607 0.6184219 0.0428014
0.6016328 0.6103154 0.0419064
0.8138005 0.5707729 0.0412387
0.9287587 0.4377227 0.0428909
0.9522698 0.2412611 0.0442351
0.9563498 0.0417255 0.0451568
0.0248659 0.7765857 0.0382334
0.0248132 0.7775830 0.0381994
0.0245547 0.7824803 0.0380326
0.0321581 0.7872512 0.0376512
0.4635698 0.7832929 0.0369351
0.7717252 0.7753093 0.0356324
0.9175748 0.6158622 0.0389573
0.9512058 0.4395698 0.0417403
0.9560779 0.2535916 0.0436816
0.0195094 0.8780484 0.0347765
0.0194778 0.8786473 0.0347560
0.0194148 0.8798408 0.0347154
0.0192275 0.8833886 0.0345945
0.0254047 0.8841947 0.0343851
0.4772848 0.8815934 0.0335674
0.8722365 0.8722365 0.0319424
0.9479614 0.6524969 0.0371923
0.9552963 0.4751035 0.0406914
0.0156939 0.9364586 0.0323140
0.0156689 0.9366319 0.0322979
0.0156440 0.9368035 0.0322818
0.0156440 0.9368035 0.0322818
0.0154703 0.9379585 0.0321697
0.0166958 0.9388518 0.0320347
0.4963928 0.9373407 0.0310957
0.9335212 0.9335212 0.0292695
0.9528762 0.7138676 0.0352862
0.0133785 0.9482156 0.0308197
0.0133785 0.9482156 0.0308197
0.0133785 0.9482156 0.0308197
0.0133785 0.9482156 0.0308197
0.0133785 0.9482156 0.0308197
0.0133785 0.9482156 0.0308197
0.0207719 0.9480911 0.0306265
0.5890116 0.9473310 0.0295546
0.9457739 0.9457739 0.0277622
0.1100673 0.0613953 0.1573018
0.1087335 0.0614280 0.1535562
0.3422178 0.0556982 0.2023498
0.4843952 0.0522090 0.2020094
0.6369762 0.0484646 0.2028715
0.8235177 0.0438868 0.1992492
0.9289259 0.0411913 0.1664083
0.9513723 0.0392807 0.1135667
0.9564131 0.0384553 0.0536861
0.0580329 0.1483351 0.1424287
0.1514438 0.1514438 0.1514438
0.3278828 0.1044809 0.1544196
0.4831088 0.0522406 0.1616537
0.6406401 0.0483747 0.1705955
0.8256457 0.0438346 0.1706604
0.9299421 0.0411441 0.1428290
0.9514582 0.0392683 0.0595144
0.9564129 0.0384554 0.0531732
0.0499013 0.3023639 0.1427862
0.0497429 0.3053631 0.1309292
0.3087311 0.3036210 0.1186506
0.4828617 0.2892834 0.0879476
0.6462539 0.2560311 0.0563034
0.8324740 0.0555014 0.0526199
0.9323827 0.0410201 0.0517839
0.9517972 0.0392191 0.0524881
0.9564119 0.0384556 0.0512359
0.0424510 0.4434879 0.0529176
0.0422984 0.4463779 0.0524129
0.1675265 0.4513458 0.0515229
0.4548211 0.4460588 0.0504228
0.6355896 0.4349079 0.0490175
0.8278905 0.3913669 0.0473851
0.9319060 0.2392269 0.0472524
0.9526946 0.0390844 0.0474237
0.9564100 0.0384559 0.0486376
0.0351870 0.5810825 0.0454821
0.0350711 0.5832781 0.0452638
0.0344791 0.5944921 0.0447255
0.3724006 0.5934756 0.0439811
0.6003314 0.5867672 0.0430585
0.8147437 0.5488612 0.0423142
0.9291471 0.4176621 0.0438356
0.9523444 0.2099904 0.0450912
0.9563544 0.0415081 0.0462963
0.0254112 0.7662563 0.0385853
0.0253550 0.7673200 0.0385491
0.0250798 0.7725338 0.0383715
0.0329296 0.7786586 0.0379370
0.4710828 0.7747400 0.0371979
0.7748371 0.7624556 0.0360077
0.9191314 0.6027059 0.0392815
0.9513765 0.4252713 0.0419810
0.9560860 0.2490772 0.0445926
0.0196686 0.8750327 0.0348792
0.0196686 0.8750327 0.0348792
0.0195094 0.8780484 0.0347765
0.0193520 0.8810288 0.0346749
0.0254100 0.8836121 0.0344057
0.4850978 0.8792132 0.0336250
0.8734626 0.8649671 0.0321584
0.9481738 0.6458730 0.0373514
0.9553219 0.4708162 0.0411485
0.0157189 0.9362835 0.0323301
0.0156939 0.9364586 0.0323140
0.0156689 0.9366319 0.0322979
0.0156440 0.9368035 0.0322818
0.0156440 0.9368035 0.0322818
0.0168340 0.9386968 0.0320473
0.5001919 0.9371658 0.0311020
0.9341695 0.9310002 0.0294295
0.9529232 0.7108127 0.0353649
0.0133785 0.9482156 0.0308197
0.0133785 0.9482156 0.0308197
0.0133785 0.9482156 0.0308197
0.0133785 0.9482156 0.0308197
0.0133785 0.9482156 0.0308197
0.0133785 0.9482156 0.0308197
0.0208069 0.9480906 0.0306257
0.5910667 0.9473262 0.0295484
0.9457739 0.9457739 0.0277622
0.0625619 0.0625611 0.2410915
0.1578786 0.0602219 0.2347652
0.3358005 0.0558556 0.2946398
0.4827065 0.0522505 0.3243736
0.6348673 0.0485164 0.3433323
0.8209659 0.0439494 0.3519068
0.9283390 0.0412175 0.3111788
0.9513004 0.0392910 0.2568663
0.9564184 0.0384544 0.1883136
0.0568835 0.1701055 0.2434430
0.1282035 0.1514161 0.2809370
0.3266802 0.0937650 0.2942691
0.4823745 0.0522586 0.3098391
0.6384120 0.0484294 0.3281492
0.8230866 0.0438974 0.3383799
0.9293841 0.0411703 0.3014255
0.9513864 0.0392786 0.2511752
0.9564181 0.0384544 0.1838438
0.0501000 0.2985995 0.2899464
0.0497759 0.3047386 0.2969590
0.3040079 0.3040079 0.3040079
0.4815942 0.2891710 0.3079638
0.6456892 0.2553172 0.3109320
0.8324327 0.0550130 0.3026215
0.9321797 0.0410310 0.2640304
0.9518948 0.0392047 0.2268294
0.9564169 0.0384546 0.1638054
0.0426535 0.4396521 0.3076312
0.0424506 0.4434944 0.3054767
0.1393160 0.4518168 0.3012855
0.4522581 0.4463608 0.3015790
0.6343270 0.4350160 0.3008510
0.8276490 0.3913003 0.2873205
0.9319043 0.2385148 0.2332334
0.9527056 0.0390827 0.1659144
0.9564147 0.0384550 0.0621115
0.0353199 0.5785651 0.2930012
0.0350897 0.5829250 0.2911886
0.0345018 0.5940607 0.2831550
0.3675675 0.5937941 0.2797322
0.5983473 0.5869831 0.2760434
0.8142987 0.5491507 0.2585572
0.9291199 0.4176233 0.2006991
0.9523458 0.2094227 0.0833104
0.9563541 0.0417991 0.0522526
0.0256224 0.7622558 0.2189041
0.0255650 0.7633424 0.2157035
0.0252836 0.7686734 0.2059403
0.0326658 0.7757882 0.1897098
0.4699971 0.7721253 0.1754520
0.7746208 0.7587474 0.1348970
0.9195126 0.5991893 0.0532880
0.9513840 0.4232318 0.0500020
0.9560829 0.2535988 0.0496452
0.0197616 0.8732714 0.0421067
0.0197616 0.8732707 0.0420104
0.0196653 0.8750949 0.0416476
0.0194746 0.8787067 0.0413086
0.0256784 0.8809614 0.0408368
0.4907974 0.8770504 0.0398610
0.8755449 0.8570434 0.0382187
0.9484238 0.6382400 0.0416476
0.9553129 0.4729676 0.0451308
0.0158189 0.9355664 0.0330812
0.0157938 0.9357490 0.0330618
0.0157687 0.9359296 0.0330080
0.0156936 0.9364603 0.0329175
0.0156438 0.9368050 0.0328165
0.0172418 0.9381666 0.0327461
0.5120160 0.9365452 0.0318278
0.9353690 0.9252716 0.0305168
0.9529715 0.7077791 0.0376435
0.0133785 0.9482156 0.0308197
0.0133785 0.9482156 0.0308197
0.0133785 0.9482156 0.0308197
0.0133785 0.9482156 0.0308197
0.0133785 0.9482156 0.0308197
0.0133785 0.9482156 0.0308197
0.0209483 0.9480884 0.0306225
0.5951758 0.9473166 0.0295359
0.9457739 0.9457739 0.0277622
0.0625611 0.0625611 0.3346243
0.0625610 0.0625627 0.3590864
0.3259434 0.0560975 0.3884722
0.4817548 0.0522738 0.4216683
0.6346967 0.0485206 0.4503388
0.8198965 0.0439757 0.4692961
0.9281805 0.0412244 0.4206086
0.9512390 0.0392997 0.3541533
0.9564278 0.0384526 0.2769706
0.0568536 0.1706727 0.3696048
0.0580650 0.1477267 0.3940566
0.3222083 0.0590740 0.4118177
0.4819208 0.0522698 0.4265935
0.6383748 0.0484303 0.4472374
0.8231429 0.0438960 0.4623847
0.9288841 0.0411932 0.4141101
0.9513249 0.0392875 0.3496144
0.9564274 0.0384527 0.2742192
0.0496345 0.3074177 0.3916671
0.0496139 0.3078077 0.4099399
0.2933092 0.3043774 0.4311488
0.4785266 0.2886969 0.4391524
0.6441549 0.2537276 0.4472929
0.8321922 0.0541400 0.4421877
0.9320375 0.0410386 0.3868132
0.9518340 0.0392137 0.3326961
0.9564260 0.0384529 0.2636596
0.0426837 0.4390788 0.4250127
0.0424772 0.4429921 0.4297751
0.0539754 0.4524912 0.4427909
0.4467577 0.4467577 0.4467577
0.6315201 0.4350795 0.4508854
0.8270443 0.3911159 0.4398208
0.9318821 0.2370610 0.3709699
0.9527249 0.0390798 0.2978129
0.9564232 0.0384535 0.2411416
0.0354836 0.5754648 0.4469688
0.0353136 0.5786848 0.4470477
0.0345584 0.5929888 0.4454153
0.3573346 0.5942439 0.4469003
0.5941531 0.5872604 0.4484540
0.8133062 0.5496757 0.4340110
0.9290460 0.4175310 0.3615616
0.9523461 0.2082720 0.2844704
0.9563553 0.0422268 0.2157710
0.0257056 0.7606798 0.4373812
0.0256482 0.7617676 0.4348350
0.0253095 0.7681819 0.4290510
0.0314203 0.7760864 0.4212442
0.4633264 0.7723767 0.4203591
0.7729033 0.7599316 0.4160646
0.9192707 0.5995648 0.3395707
0.9513785 0.4230987 0.2617601
0.9560813 0.2588917 0.2004127
0.0197852 0.8728249 0.3155336
0.0197529 0.8734351 0.3145486
0.0196568 0.8752557 0.3102820
0.0194982 0.8782597 0.3012610
0.0250499 0.8810892 0.2925644
0.4861289 0.8771625 0.2856028
0.8749645 0.8579884 0.2667021
0.9484049 0.6384332 0.1826250
0.9553002 0.4762116 0.1419399
0.0158155 0.9355912 0.0445805
0.0157904 0.9357734 0.0444776
0.0157654 0.9359535 0.0442665
0.0156904 0.9364831 0.0438661
0.0156406 0.9368268 0.0433752
0.0169385 0.9381888 0.0428760
0.5095671 0.9365654 0.0414466
0.9352773 0.9256018 0.0392149
0.9529536 0.7093208 0.0444805
0.0133779 0.9482179 0.0326053
0.0133779 0.9482179 0.0326053
0.0133779 0.9482179 0.0325837
0.0133780 0.9482178 0.0325196
0.0133780 0.9482177 0.0324568
0.0133780 0.9482176 0.0323749
0.0210909 0.9480882 0.0321017
0.5992881 0.9473086 0.0309400
0.9457762 0.9457762 0.0297408
0.0625611 0.0625611 0.4574659
0.0625610 0.0625629 0.4721331
0.3147083 0.0563733 0.4945930
0.4779719 0.0523667 0.5184869
0.6351282 0.0485100 0.5483786
0.8213606 0.0439397 0.5734602
0.9280865 0.0412285 0.5179691
0.9511879 0.0393070 0.4417489
0.9564409 0.0384502 0.3488136
0.0576286 0.1559925 0.4865345
0.0589858 0.1302844 0.5058211
0.3123991 0.0564299 0.5249102
0.4787244 0.0523482 0.5363526
0.6378172 0.0484440 0.5549017
0.8235170 0.0438868 0.5709022
0.9291454 0.0411813 0.5141627
0.9512737 0.0392948 0.4378630
0.9564403 0.0384503 0.3462571
0.0492902 0.3139384 0.4997959
0.0494178 0.3115216 0.5202141
0.2742320 0.3045134 0.5497043
0.4732334 0.2877133 0.5599397
0.6414223 0.2511254 0.5709765
0.8316908 0.0530046 0.5663524
0.9319566 0.0410429 0.4935716
0.9517826 0.0392212 0.4228312
0.9564383 0.0384506 0.3368720
0.0423960 0.4445284 0.5228074
0.0422335 0.4476067 0.5340839
0.0475886 0.4532892 0.5685045
0.4378990 0.4471901 0.5745632
0.6270022 0.4350556 0.5812269
0.8260292 0.3907961 0.5696961
0.9318356 0.2348159 0.4822333
0.9526728 0.0390878 0.3914622
0.9564349 0.0384513 0.3193744
0.0354683 0.5757535 0.5558738
0.0352965 0.5790088 0.5598743
0.0345934 0.5923261 0.5744289
0.3405747 0.5947986 0.5838035
0.5875777 0.5875777 0.5875777
0.8117220 0.5504346 0.5721389
0.9289215 0.4173820 0.4788949
0.9523450 0.2065084 0.3837603
0.9563610 0.0425587 0.3025464
0.0258383 0.7581660 0.5784947
0.0257214 0.7603803 0.5777862
0.0253804 0.7668403 0.5754664
0.0296274 0.7764830 0.5708123
0.4528839 0.7727082 0.5721371
0.7702180 0.7616787 0.5721741
0.9188829 0.6001228 0.4705717
0.9513688 0.4228944 0.3727777
0.9560810 0.2649626 0.2982170
0.0198052 0.8724453 0.4771127
0.0197730 0.8730553 0.4762393
0.0196770 0.8748726 0.4716175
0.0195187 0.8778719 0.4632469
0.0241194 0.8812652 0.4554403
0.4789382 0.8773159 0.4538476
0.8740708 0.8594069 0.4464142
0.9483749 0.6387201 0.3437496
0.9552830 0.4805642 0.2839359
0.0158110 0.9356243 0.3061506
0.0158110 0.9356241 0.3050498
0.0157609 0.9359856 0.3025371
0.0157110 0.9363389 0.2966429
0.0156363 0.9368558 0.2893388
0.0164762 0.9382190 0.2804753
0.5058400 0.9365925 0.2693092
0.9351351 0.9260853 0.2415861
0.9529375 0.7108742 0.2117473
0.0133759 0.9482257 0.0403526
0.0133759 0.9482257 0.0403526
0.0133759 0.9482256 0.0402883
0.0133759 0.9482255 0.0400979
0.0133760 0.9482253 0.0399110
0.0133760 0.9482251 0.0396072
0.0210176 0.9480965 0.0390725
0.5993063 0.9473152 0.0375211
0.9457821 0.9457821 0.0359400
0.0625632 0.0625628 0.6189878
0.0625610 0.0625634 0.6308227
0.2876332 0.0570377 0.6532057
0.4701773 0.0525580 0.6704093
0.6308137 0.0486159 0.6909685
0.8216636 0.0439323 0.7105834
0.9285349 0.0412088 0.6376859
0.9511604 0.0393109 0.5449292
0.9564647 0.0384457 0.4387278
0.0625650 0.0625610 0.6484805
0.0625651 0.0625610 0.6596850
0.2849344 0.0571039 0.6799982
0.4712867 0.0525307 0.6928339
0.6338269 0.0485419 0.7058002
0.8239292 0.0438767 0.7150575
0.9292294 0.0411775 0.6360291
0.9513336 0.0392862 0.5422108
0.9564639 0.0384459 0.4362158
0.0490503 0.3184823 0.6578906
0.0493309 0.3131685 0.6757571
0.2236968 0.3041140 0.7111269
0.4618071 0.2854038 0.7236312
0.6350721 0.2455906 0.7366572
0.8306059 0.0512146 0.7321466
0.9317561 0.0410534 0.6293810
0.9517560 0.0392251 0.5319030
0.9564617 0.0384463 0.4287778
0.0419276 0.4534026 0.6710672
0.0419098 0.4537381 0.6850028
0.0419085 0.4537638 0.7330510
0.4186196 0.4468035 0.7423292
0.6148887 0.4328292 0.7494536
0.8240082 0.3901555 0.7406687
0.9317458 0.2304199 0.6258368
0.9526462 0.0390918 0.5090769
0.9564569 0.0384472 0.4127631
0.0350623 0.5834450 0.6977648
0.0349404 0.5857532 0.7060035
0.0346204 0.5918154 0.7344331
0.3010262 0.5905378 0.7543456
0.5680910 0.5814042 0.7581086
0.8086249 0.5518726 0.7503788
0.9286839 0.4171001 0.6271739
0.9523437 0.2030933 0.5042873
0.9563769 0.0428636 0.3995825
0.0257697 0.7594654 0.7326311
0.0257104 0.7605884 0.7351213
0.0253669 0.7670950 0.7427702
0.0263987 0.7772369 0.7560697
0.4318891 0.7733397 0.7593551
0.7649687 0.7649687 0.7649687
0.9180710 0.6011860 0.6284049
0.9513514 0.4225104 0.4999395
0.9560875 0.2718858 0.4009810
0.0198475 0.8716443 0.6475271
0.0198153 0.8722541 0.6465539
0.0197192 0.8740747 0.6436267
0.0195290 0.8776772 0.6377403
0.0224054 0.8816084 0.6300971
0.4648895 0.8776138 0.6310922
0.8723753 0.8621065 0.6292734
0.9483192 0.6392642 0.4886952
0.9552594 0.4871614 0.4016487
0.0158272 0.9355058 0.4930665
0.0158273 0.9355052 0.4918602
0.0157772 0.9358686 0.4897228
0.0157024 0.9363990 0.4853088
0.0156031 0.9370816 0.4798183
0.0155495 0.9382794 0.4698562
0.4987184 0.9366450 0.4672211
0.9348655 0.9269673 0.4577147
0.9529046 0.7139894 0.3802329
0.0133722 0.9482399 0.2770071
0.0133722 0.9482397 0.2755803
0.0133722 0.9482396 0.2741476
0.0133723 0.9482394 0.2712641
0.0133724 0.9482390 0.2654194
0.0133725 0.9482385 0.2579509
0.0209079 0.9481108 0.2431586
0.6013920 0.9473220 0.2210499
0.9457926 0.9457926 0.1920069
0.0625658 0.0625628 0.8141293
0.0625630 0.0625610 0.8177881
0.0625639 0.0625610 0.8300295
0.4102046 0.0540297 0.8354253
0.5646890 0.0502386 0.8406031
0.7517345 0.0456484 0.8481613
0.9290056 0.0411877 0.8070131
0.9512717 0.0392951 0.6838598
0.9565109 0.0384371 0.5593240
0.0625646 0.0625610 0.8213720
0.0625608 0.0625660 0.8274755
0.0625609 0.0625648 0.8350339
0.4055597 0.0541437 0.8429179
0.5603294 0.0503456 0.8470236
0.7480420 0.0457390 0.8522169
0.9296995 0.0411556 0.8096781
0.9513577 0.0392828 0.6828173
0.9565104 0.0384372 0.5582246
0.0505338 0.2903822 0.8326203
0.0510034 0.2814869 0.8380987
0.0515856 0.2704594 0.8500409
0.3827834 0.2513633 0.8557639
0.5448095 0.2084542 0.8601997
0.7350000 0.0497130 0.8661534
0.9316415 0.0410594 0.8209380
0.9517831 0.0392211 0.6802961
0.9565074 0.0384378 0.5516779
0.0432744 0.4278906 0.8331563
0.0435774 0.4221502 0.8387442
0.0444032 0.4065096 0.8534619
0.3243813 0.3945026 0.8622448
0.5164041 0.3793919 0.8651214
0.7199668 0.3458870 0.8692819
0.9314299 0.2193629 0.8308347
0.9525961 0.0390995 0.6712439
0.9565023 0.0384387 0.5398923
0.0371542 0.5438189 0.8371139
0.0373077 0.5409129 0.8405985
0.0379490 0.5287636 0.8533283
0.0618466 0.5142710 0.8671519
0.4668290 0.5043477 0.8689371
0.6944817 0.4841816 0.8715944
0.9280239 0.4163750 0.8365877
0.9523300 0.1947404 0.6700373
0.9564238 0.0426353 0.5306523
0.0294165 0.6903865 0.8444488
0.0294756 0.6892685 0.8464940
0.0297892 0.6833273 0.8544812
0.0303137 0.6733928 0.8679010
0.3267207 0.6650448 0.8716612
0.6357205 0.6528048 0.8728551
0.9160611 0.6035935 0.8464856
0.9513027 0.4216054 0.6706789
0.9561239 0.2736697 0.5349141
0.0198416 0.8717564 0.8410305
0.0198088 0.8723778 0.8433706
0.0197120 0.8742097 0.8451221
0.0195520 0.8772410 0.8497858
0.0192997 0.8820204 0.8579384
0.4296801 0.8782213 0.8612372
0.8683298 0.8683298 0.8683298
0.9481838 0.6404912 0.6713396
0.9552445 0.4949931 0.5459545
0.0158596 0.9352669 0.6949830
0.0158345 0.9354527 0.6952947
0.0158097 0.9356340 0.6925321
0.0157349 0.9361703 0.6888581
0.0156108 0.9370294 0.6842639
0.0154387 0.9381613 0.6741921
0.4818449 0.9367552 0.6747304
0.9342225 0.9288409 0.6720792
0.9527653 0.7249146 0.5577226
0.0133639 0.9482713 0.5045787
0.0133639 0.9482713 0.5045787
0.0133640 0.9482710 0.5032617
0.0133641 0.9482705 0.5006321
0.0133643 0.9482697 0.4966978
0.0133648 0.9482679 0.4875639
0.0209016 0.9481396 0.4825541
0.5994114 0.9473534 0.4786380
0.9458162 0.9458162 0.4725202
0.0625651 0.0625610 0.9155233
0.0625609 0.0625655 0.9166709
0.0625608 0.0625663 0.9204247
0.2484152 0.0580001 0.9249466
0.4236294 0.0537003 0.9263261
0.5960269 0.0494695 0.9277598
0.8155664 0.0440819 0.9298655
0.9514765 0.0392657 0.8742204
0.9565945 0.0384215 0.7141669
0.0625673 0.0625609 0.9183836
0.0625608 0.0625661 0.9194513
0.0625608 0.0625663 0.9204247
0.2440564 0.0581071 0.9266377
0.4208904 0.0537675 0.9278692
0.5929764 0.0495444 0.9291595
0.8136150 0.0441298 0.9306191
0.9515647 0.0392529 0.8764160
0.9565945 0.0384215 0.7141669
0.0564926 0.1775108 0.9255681
0.0569421 0.1689955 0.9264587
0.0562168 0.1827354 0.9276548
0.2133153 0.1929086 0.9307003
0.4082179 0.1378643 0.9318908
0.5800808 0.0498609 0.9331865
0.8045909 0.0443513 0.9335473
0.9519085 0.0392027 0.8816832
0.9565936 0.0384216 0.7127371
0.0474511 0.3487750 0.9241232
0.0477102 0.3438680 0.9253987
0.0483766 0.3312442 0.9288175
0.0495754 0.3237646 0.9324136
0.3788855 0.3098284 0.9332718
0.5644350 0.2799254 0.9343977
0.7906573 0.1652487 0.9358847
0.9524949 0.0391149 0.8936657
0.9565909 0.0384221 0.7084661
0.0418830 0.4542469 0.9236026
0.0420541 0.4510050 0.9246136
0.0427509 0.4378067 0.9287397
0.0435464 0.4227382 0.9329639
0.3254797 0.4128946 0.9343980
0.5397016 0.3958314 0.9351678
0.7779539 0.3532881 0.9362631
0.9522655 0.1713208 0.8995199
0.9565239 0.0416241 0.6983078
0.0351823 0.5811713 0.9241140
0.0353113 0.5787273 0.9251363
0.0357391 0.5706250 0.9281735
0.0365944 0.5544234 0.9327953
0.0514181 0.5425431 0.9355162
0.4839134 0.5320091 0.9359392
0.7516672 0.5066440 0.9365724
0.9511621 0.4194093 0.9045533
0.9562100 0.2703534 0.7110097
0.0262497 0.7503733 0.9260051
0.0262879 0.7496489 0.9266413
0.0265012 0.7456095 0.9281433
0.0269077 0.7379084 0.9310553
0.0275262 0.7261936 0.9345770
0.2684277 0.7169637 0.9360357
0.6825940 0.7021209 0.9362278
0.9478435 0.6432956 0.9153433
0.9553101 0.4952012 0.7233007
0.0158294 0.9354897 0.9155754
0.0158294 0.9354897 0.9155754
0.0157792 0.9358546 0.9164892
0.0157287 0.9362140 0.9193153
0.0156286 0.9369088 0.9224242
0.0154547 0.9380587 0.9259842
0.4388988 0.9369816 0.9286681
0.9325965 0.9325965 0.9325965
0.9524540 0.7472192 0.7635563
0.0133474 0.9483338 0.7285596
0.0133474 0.9483338 0.7285596
0.0133483 0.9483303 0.7187345
0.0133483 0.9483303 0.7187345
0.0133483 0.9483303 0.7187345
0.0133485 0.9483298 0.7171067
0.0216970 0.9481868 0.7101065
0.6016196 0.9474043 0.7138616
0.9458653 0.9458653 0.7088015
0.0625646 0.0625642 0.9447129
0.0625646 0.0625642 0.9447129
0.0595858 0.1189192 0.9447595
0.0563098 0.1809729 0.9449758
0.2084015 0.2135606 0.9453368
0.4232172 0.1627693 0.9460252
0.6276666 0.0486931 0.9470502
0.8738339 0.0426520 0.9482414
0.9567501 0.0383922 0.9235754
0.0591285 0.1275813 0.9447783
0.0586507 0.1366315 0.9448018
0.0572420 0.1633162 0.9448949
0.0553221 0.1996833 0.9450774
0.2015451 0.2267471 0.9454102
0.4217278 0.1854607 0.9460830
0.6264727 0.0487224 0.9470434
0.8615637 0.0429531 0.9481935
0.9567517 0.0383919 0.9248734
0.0538512 0.2275443 0.9452557
0.0537903 0.2286973 0.9452636
0.0534277 0.2355663 0.9453122
0.0526268 0.2507366 0.9454244
0.1671975 0.2676992 0.9456678
0.4144586 0.2420238 0.9462789
0.6225949 0.1338864 0.9471628
0.8615637 0.0429531 0.9481935
0.9567549 0.0383912 0.9272426
0.0496424 0.3072682 0.9458845
0.0496424 0.3072682 0.9458845
0.0495609 0.3088106 0.9458976
0.0492636 0.3144432 0.9459454
0.0522075 0.3247476 0.9460743
0.3998853 0.3082505 0.9465879
0.6160980 0.2630042 0.9473559
0.8608172 0.0477111 0.9482327
0.9567581 0.0383906 0.9293630
0.0457328 0.3813236 0.9465074
0.0457633 0.3807456 0.9465027
0.0457937 0.3801693 0.9464981
0.0457328 0.3813236 0.9465074
0.0454541 0.3866026 0.9465501
0.3756296 0.3756296 0.9469408
0.6045377 0.3456372 0.9475619
0.8567387 0.2538959 0.9483207
0.9566780 0.0424244 0.9293436
0.0405852 0.4788287 0.9472114
0.0406298 0.4779844 0.9472062
0.0407186 0.4763022 0.9471958
0.0408070 0.4746288 0.9471854
0.0409386 0.4721348 0.9471697
0.3200261 0.4679689 0.9473994
0.5840606 0.4498671 0.9478476
0.8468161 0.3980328 0.9484094
0.9563689 0.2697413 0.9367861
0.0333524 0.6158340 0.9478036
0.0333524 0.6158340 0.9478036
0.0334148 0.6146517 0.9478007
0.0335392 0.6122956 0.9477949
0.0337862 0.6076169 0.9477827
0.0480760 0.6031503 0.9478446
0.5325253 0.5940154 0.9480866
0.8208801 0.5663616 0.9483987
0.9554551 0.4933986 0.9409354
0.0234341 0.8037064 0.9477510
0.0234341 0.8037064 0.9477510
0.0240275 0.7924655 0.9477832
0.0240275 0.7924655 0.9477832
0.0240275 0.7924655 0.9477832
0.0240275 0.7924655 0.9477832
0.3855987 0.7882054 0.9478322
0.7620974 0.7773101 0.9478664
0.9527422 0.7365492 0.9479354
0.0133217 0.9484309 0.9374259
0.0133217 0.9484309 0.9374259
0.0133217 0.9484309 0.9374259
0.0133217 0.9484309 0.9374259
0.0133217 0.9484309 0.9374259
0.0133192 0.9484406 0.9430622
0.0212235 0.9483067 0.9440962
0.6224566 0.9474575 0.9453927
0.9459614 0.9459614 0.9459614
