LUTs/GSRT_up_size-33.cube
# This LUT implements the SDR-HLG conversion with using Gamut Squeeze
# Described in the thesis "Evaluation of colour recreation in round-trip conversion" 
# author: Lasse Bickelmann 
# lut-type: III
# input:  BT.709/SDR 
# output:  BT.2100/HLG (limited to P3_limit2020)
# tonemapping: a = 0.5, b=5, c=1.22
# gma_wminde: dL= 1.4, dC=1.1, dH=1.1
# EOTF_sbswc: a=40, b=44, c=0.1
TITLE "GSRT_up"
LUT_3D_SIZE 9
0.0625611 0.0625611 0.0625611
0.0625611 0.0625611 0.0625611
0.0625611 0.0625611 0.0625611
0.0625611 0.0625611 0.0625611
0.2985636 0.1207046 0.0625610
0.4329579 0.1538151 0.0625609
0.5378093 0.1808517 0.0625608
0.6289089 0.2135309 0.0625607
0.9616813 0.9616813 0.9616813
0.0625611 0.0625611 0.0625611
0.1041899 0.1049489 0.0682201
0.1902959 0.1167602 0.0686327
0.2868360 0.1404527 0.0701151
0.3874724 0.1689356 0.0722004
0.4843649 0.1983696 0.0745916
0.5670961 0.2284769 0.0771577
0.6672873 0.2814797 0.0817968
0.9616813 0.9616813 0.9616813
0.1039243 0.1526356 0.0748753
0.1485233 0.2026548 0.0816157
0.2020497 0.2045928 0.0815232
0.2890826 0.2114978 0.0815609
0.3873708 0.2249077 0.0819969
0.4840942 0.2432266 0.0829021
0.5667705 0.2651728 0.0842317
0.6683344 0.3165944 0.0886600
0.9616813 0.9616813 0.9616813
0.1656206 0.2869883 0.0932428
0.2068975 0.3081910 0.0960023
0.2396558 0.3089912 0.0959328
0.3072615 0.3117228 0.0958257
0.3952310 0.3176622 0.0958007
0.4877846 0.3270510 0.0959770
0.5678871 0.3399345 0.0964311
0.6720854 0.3942260 0.1016771
0.9616813 0.9616813 0.9616813
0.2199437 0.4052847 0.1094152
0.2693677 0.4181902 0.1109889
0.2915695 0.4186633 0.1109399
0.3426977 0.4201502 0.1108382
0.4168865 0.4233464 0.1107281
0.5004944 0.4285201 0.1106748
0.5737996 0.4364034 0.1107972
0.6810037 0.5034590 0.1182744
0.9616813 0.9616813 0.9616813
0.2709448 0.5150705 0.1245986
0.3316632 0.5223418 0.1254648
0.3481301 0.5226707 0.1254335
0.3879678 0.5236185 0.1253621
0.4497728 0.5255168 0.1252647
0.5211059 0.5284027 0.1251677
0.5861805 0.5345994 0.1254372
0.6965229 0.5990579 0.1359588
0.9616813 0.9616813 0.9616813
0.3217515 0.5992519 0.1397242
0.3978199 0.6047059 0.1405678
0.4109755 0.6049787 0.1405612
0.4436520 0.6057274 0.1405501
0.4965206 0.6071587 0.1405490
0.5523184 0.6092655 0.1405795
0.6058332 0.6123832 0.1406851
0.7207595 0.6825253 0.1571047
0.9616813 0.9616813 0.9616813
0.4462231 0.7348670 0.1767804
0.5573316 0.7435771 0.1793432
0.5678381 0.7440246 0.1794345
0.5910338 0.7451629 0.1796741
0.6244457 0.7471729 0.1801090
0.6652415 0.7502796 0.1807936
0.7095347 0.7546856 0.1817904
0.7546725 0.7605914 0.1831728
0.9616813 0.9616813 0.9616813
0.9616813 0.9616813 0.9616813
0.9616813 0.9616813 0.9616813
0.9616813 0.9616813 0.9616813
0.9616813 0.9616813 0.9616813
0.9616813 0.9616813 0.9616813
0.9616813 0.9616813 0.9616813
0.9616813 0.9616813 0.9616813
0.9616813 0.9616813 0.9616813
0.9616813 0.9616813 0.9616813
0.0732357 0.0680284 0.1111008
0.0699186 0.0663295 0.0960174
0.0625611 0.0625611 0.0625611
0.0625611 0.0625611 0.0625611
0.2985636 0.1207046 0.0625610
0.4329579 0.1538151 0.0625609
0.5378093 0.1808517 0.0625608
0.6289089 0.2135309 0.0625607
0.9616813 0.9616813 0.9616813
0.0670195 0.0648446 0.0828345
0.1049017 0.1049017 0.1049017
0.1903382 0.1168406 0.1042537
0.2868261 0.1405417 0.1090296
0.3874492 0.1690319 0.1176847
0.4843563 0.1984835 0.1285645
0.5670869 0.2286085 0.1407692
0.6672781 0.2816484 0.1641760
0.9616813 0.9616813 0.9616813
0.1039243 0.1526356 0.0748753
0.1490796 0.2025813 0.1149206
0.2023347 0.2045472 0.1164830
0.2892014 0.2114928 0.1206444
0.3874184 0.2249386 0.1275712
0.4841313 0.2432910 0.1367499
0.5667856 0.2652655 0.1475655
0.6683396 0.3167281 0.1709655
0.9616813 0.9616813 0.9616813
0.1656727 0.2869789 0.0971408
0.2075531 0.3080991 0.1386116
0.2401680 0.3089095 0.1397301
0.3075940 0.3116630 0.1426058
0.3954365 0.3176312 0.1474946
0.4879369 0.3270531 0.1543424
0.5679663 0.3399682 0.1629163
0.6721293 0.3942992 0.1872200
0.9616813 0.9616813 0.9616813
0.2205386 0.4052058 0.1434902
0.2702059 0.4180706 0.1668551
0.2923145 0.4185494 0.1676421
0.3432809 0.4200500 0.1696716
0.4173139 0.4232670 0.1731796
0.5008158 0.4284679 0.1782425
0.5739838 0.4363799 0.1849493
0.6811154 0.5034784 0.2125721
0.9616813 0.9616813 0.9616813
0.2720034 0.5149737 0.1807727
0.3327355 0.5222353 0.1967400
0.3491324 0.5225675 0.1973317
0.3888282 0.5235236 0.1988603
0.4504676 0.5254354 0.2015202
0.5216122 0.5283401 0.2054076
0.5864994 0.5345579 0.2113912
0.6967270 0.5990405 0.2456929
0.9616813 0.9616813 0.9616813
0.3232518 0.5991557 0.2168075
0.3991535 0.6046095 0.2294445
0.4122533 0.6048842 0.2299568
0.4448065 0.6056376 0.2312857
0.4974870 0.6070767 0.2336205
0.5529878 0.6091951 0.2370869
0.6062930 0.6123262 0.2418006
0.7210716 0.6824853 0.2879362
0.9616813 0.9616813 0.9616813
0.4486303 0.7347733 0.2979485
0.5588715 0.7434877 0.3143483
0.5692746 0.7439363 0.3150940
0.5922772 0.7450778 0.3170291
0.6254450 0.7470928 0.3204457
0.6660061 0.7502066 0.3255930
0.7101060 0.7546216 0.3327019
0.7550969 0.7605381 0.3420059
0.9616813 0.9616813 0.9616813
0.9616813 0.9616813 0.9616813
0.9616813 0.9616813 0.9616813
0.9616813 0.9616813 0.9616813
0.9616813 0.9616813 0.9616813
0.9616813 0.9616813 0.9616813
0.9616813 0.9616813 0.9616813
0.9616813 0.9616813 0.9616813
0.9616813 0.9616813 0.9616813
0.9616813 0.9616813 0.9616813
0.0999289 0.0817002 0.2324810
0.0993040 0.0813801 0.2296393
0.0853187 0.0742171 0.1660452
0.0625611 0.0625611 0.0625611
0.2985636 0.1207046 0.0625610
0.4329579 0.1538151 0.0625609
0.5378093 0.1808517 0.0625608
0.6288962 0.2135890 0.1068837
0.9616813 0.9616813 0.9616813
0.0989671 0.0812076 0.2281073
0.1150964 0.1060824 0.2233601
0.1917056 0.1181647 0.2122446
0.2871099 0.1414105 0.2032604
0.3875227 0.1696067 0.1993527
0.4844368 0.1989079 0.1993947
0.5671211 0.2289325 0.2024373
0.6672944 0.2819361 0.2242940
0.9616813 0.9616813 0.9616813
0.1120048 0.1522193 0.1912172
0.1533056 0.2022967 0.2061260
0.2044348 0.2044348 0.2044348
0.2900080 0.2115800 0.2021028
0.3877335 0.2251240 0.2010841
0.4843189 0.2435072 0.2022479
0.5668623 0.2654732 0.2056608
0.6683748 0.3169398 0.2285827
0.9616813 0.9616813 0.9616813
0.1687658 0.2867023 0.1887895
0.2096918 0.3079018 0.2065863
0.2417858 0.3087478 0.2065787
0.3085635 0.3115704 0.2068311
0.3959703 0.3176118 0.2078670
0.4882688 0.3270929 0.2101535
0.5681140 0.3400424 0.2139586
0.6722007 0.3944034 0.2396490
0.9616813 0.9616813 0.9616813
0.2223787 0.4050317 0.2036075
0.2715487 0.4179321 0.2185155
0.2934856 0.4184220 0.2188293
0.3441554 0.4199478 0.2196972
0.4179078 0.4231990 0.2213565
0.5012140 0.4284370 0.2240167
0.5741860 0.4363799 0.2280096
0.6812231 0.5035130 0.2587784
0.9616813 0.9616813 0.9616813
0.2733169 0.5148842 0.2252408
0.3337042 0.5221650 0.2372646
0.3500277 0.5225009 0.2376275
0.3895749 0.5234657 0.2385815
0.4510420 0.5253907 0.2402915
0.5220006 0.5283116 0.2428797
0.5867240 0.5345450 0.2474915
0.6968577 0.5990418 0.2863266
0.9616813 0.9616813 0.9616813
0.3242718 0.5991053 0.2519156
0.3999077 0.6045686 0.2625607
0.4129705 0.6048445 0.2629577
0.4454426 0.6056011 0.2639944
0.4980010 0.6070455 0.2658377
0.5533271 0.6091708 0.2686155
0.6065127 0.6123093 0.2724709
0.7212106 0.6824763 0.3241569
0.9616813 0.9616813 0.9616813
0.4496625 0.7347418 0.3336374
0.5594560 0.7434616 0.3491378
0.5698173 0.7439108 0.3498286
0.5927405 0.7450537 0.3516238
0.6258093 0.7470710 0.3548036
0.6662759 0.7501880 0.3596194
0.7102992 0.7546067 0.3663144
0.7552331 0.7605271 0.3751436
0.9616813 0.9616813 0.9616813
0.9616813 0.9616813 0.9616813
0.9616813 0.9616813 0.9616813
0.9616813 0.9616813 0.9616813
0.9616813 0.9616813 0.9616813
0.9616813 0.9616813 0.9616813
0.9616813 0.9616813 0.9616813
0.9616813 0.9616813 0.9616813
0.9616813 0.9616813 0.9616813
0.9616813 0.9616813 0.9616813
0.1282629 0.0962124 0.3613220
0.1279444 0.0960492 0.3598737
0.1221132 0.0930626 0.3333579
0.1145203 0.0891736 0.2988311
0.2988590 0.1241783 0.2669953
0.4330090 0.1558180 0.2566246
0.5378009 0.1823391 0.2532772
0.6288741 0.2147985 0.2622348
0.9616813 0.9616813 0.9616813
0.1277746 0.0959622 0.3591014
0.1362781 0.1119079 0.3548527
0.1975581 0.1225021 0.3425536
0.2888018 0.1441303 0.3272013
0.3881587 0.1713826 0.3153384
0.4848910 0.2001937 0.3075516
0.5673234 0.2298991 0.3031936
0.6673949 0.2827813 0.3287275
0.9616813 0.9616813 0.9616813
0.1334922 0.1527390 0.3322349
0.1646691 0.2021388 0.3295051
0.2106914 0.2045799 0.3257024
0.2926907 0.2120844 0.3188913
0.3889090 0.2257911 0.3119651
0.4850251 0.2442006 0.3066793
0.5671674 0.2661096 0.3035912
0.6685217 0.3175703 0.3309661
0.9616813 0.9616813 0.9616813
0.1776703 0.2862158 0.3076312
0.2157544 0.3075375 0.3146132
0.2464567 0.3084649 0.3135878
0.3114456 0.3114456 0.3114456
0.3976123 0.3176554 0.3088761
0.4893064 0.3272716 0.3067083
0.5685871 0.3402961 0.3055875
0.6724354 0.3947292 0.3373816
0.9616813 0.9616813 0.9616813
0.2276140 0.4046556 0.3040067
0.2753359 0.4176313 0.3119428
0.2968040 0.4181484 0.3117138
0.3466562 0.4197353 0.3112414
0.4196268 0.4230699 0.3107382
0.5023705 0.4283980 0.3105170
0.5747805 0.4364155 0.3111733
0.6815433 0.5036356 0.3501527
0.9616813 0.9616813 0.9616813
0.2769760 0.5146827 0.3104262
0.3363935 0.5220078 0.3178593
0.3525169 0.5223527 0.3179044
0.3916580 0.5233390 0.3180576
0.4526523 0.5252964 0.3184321
0.5230890 0.5282575 0.3191658
0.5873574 0.5345295 0.3219031
0.6972282 0.5990600 0.3712205
0.9616813 0.9616813 0.9616813
0.3270658 0.5989864 0.3251963
0.4019720 0.6044726 0.3330335
0.4149351 0.6047519 0.3332493
0.4471872 0.6055166 0.3338262
0.4994083 0.6069739 0.3348936
0.5542583 0.6091165 0.3365768
0.6071174 0.6122737 0.3390564
0.7215943 0.6824600 0.4034172
0.9616813 0.9616813 0.9616813
0.4524543 0.7346655 0.4124608
0.5610309 0.7433987 0.4267973
0.5712804 0.7438494 0.4274054
0.5939909 0.7449961 0.4289898
0.6267936 0.7470192 0.4318140
0.6670062 0.7501439 0.4361348
0.7108231 0.7545720 0.4422180
0.7556033 0.7605025 0.4503557
0.9616813 0.9616813 0.9616813
0.9616813 0.9616813 0.9616813
0.9616813 0.9616813 0.9616813
0.9616813 0.9616813 0.9616813
0.9616813 0.9616813 0.9616813
0.9616813 0.9616813 0.9616813
0.9616813 0.9616813 0.9616813
0.9616813 0.9616813 0.9616813
0.9616813 0.9616813 0.9616813
0.9616813 0.9616813 0.9616813
0.1569785 0.1109200 0.4918954
0.1567951 0.1108260 0.4910642
0.1535507 0.1091643 0.4763113
0.1495084 0.1070939 0.4579298
0.3019380 0.1316301 0.4266270
0.4340216 0.1601947 0.4070361
0.5382345 0.1854438 0.3949542
0.6290389 0.2172600 0.4019461
0.9616813 0.9616813 0.9616813
0.1566976 0.1107761 0.4906209
0.1620506 0.1216281 0.4878421
0.2095719 0.1302324 0.4784930
0.2933877 0.1493043 0.4628207
0.3901174 0.1748373 0.4465133
0.4861515 0.2027022 0.4331793
0.5678948 0.2317870 0.4231830
0.6676855 0.2844283 0.4562421
0.9616813 0.9616813 0.9616813
0.1601220 0.1559756 0.4726581
0.1828171 0.2029818 0.4647928
0.2221060 0.2056820 0.4601230
0.2982413 0.2134792 0.4507452
0.3915866 0.2272757 0.4398128
0.4866610 0.2456346 0.4297201
0.5679011 0.2673899 0.4215683
0.6688880 0.3188195 0.4571912
0.9616813 0.9616813 0.9616813
0.1928471 0.2858275 0.4398614
0.2266392 0.3072292 0.4409969
0.2550843 0.3082693 0.4391989
0.3169929 0.3114712 0.4352181
0.4009056 0.3179196 0.4298257
0.4914341 0.3277303 0.4240903
0.5695836 0.3408571 0.4189500
0.6729438 0.3954080 0.4606478
0.9616813 0.9616813 0.9616813
0.2371494 0.4041560 0.4241349
0.2823585 0.4172355 0.4275997
0.3030063 0.4177952 0.4269088
0.3513999 0.4194786 0.4252952
0.4229450 0.4229450 0.4229450
0.5046139 0.4284170 0.4202427
0.5759560 0.4365530 0.4180291
0.6821863 0.5039191 0.4692437
0.9616813 0.9616813 0.9616813
0.2837348 0.5143965 0.4191801
0.3414055 0.5217892 0.4231421
0.3571692 0.5221488 0.4228943
0.3955751 0.5231703 0.4223091
0.4557050 0.5251808 0.4214491
0.5251514 0.5282076 0.4204574
0.5885709 0.5345422 0.4216031
0.6979369 0.5991219 0.4853713
0.9616813 0.9616813 0.9616813
0.3322293 0.5988058 0.4241896
0.4058088 0.6043290 0.4297062
0.4185908 0.6046138 0.4297475
0.4504427 0.6053921 0.4298814
0.5020230 0.6068710 0.4302017
0.5559988 0.6090428 0.4308286
0.6082549 0.6122309 0.4319803
0.7222869 0.6824399 0.5106721
0.9616813 0.9616813 0.9616813
0.4573736 0.7345373 0.5184774
0.5637457 0.7432908 0.5293549
0.5738032 0.7437438 0.5297779
0.5961469 0.7448966 0.5308791
0.6284889 0.7469292 0.5328435
0.6682596 0.7500667 0.5358549
0.7117157 0.7545096 0.5400949
0.7562266 0.7604561 0.5457463
0.9616813 0.9616813 0.9616813
0.9616813 0.9616813 0.9616813
0.9616813 0.9616813 0.9616813
0.9616813 0.9616813 0.9616813
0.9616813 0.9616813 0.9616813
0.9616813 0.9616813 0.9616813
0.9616813 0.9616813 0.9616813
0.9616813 0.9616813 0.9616813
0.9616813 0.9616813 0.9616813
0.9616813 0.9616813 0.9616813
0.1843700 0.1249494 0.5923266
0.1842354 0.1248804 0.5919185
0.1818781 0.1236731 0.5846659
0.1791242 0.1222626 0.5759282
0.3080942 0.1409922 0.5579291
0.4362446 0.1663339 0.5417246
0.5392353 0.1900092 0.5288397
0.6294228 0.2209041 0.5348429
0.9616813 0.9616813 0.9616813
0.1841638 0.1248438 0.5917013
0.1879053 0.1327651 0.5902302
0.2252576 0.1396177 0.5847662
0.3005689 0.1560728 0.5746050
0.3934688 0.1796184 0.5627113
0.4882704 0.2062824 0.5511423
0.5688587 0.2345382 0.5409656
0.6681139 0.2867407 0.5708888
0.9616813 0.9616813 0.9616813
0.1862910 0.1613126 0.5819972
0.2034627 0.2049568 0.5757353
0.2366326 0.2078060 0.5724739
0.3061562 0.2157520 0.5656482
0.3956959 0.2295289 0.5567596
0.4892300 0.2477669 0.5473814
0.5690732 0.2692939 0.5386601
0.6694147 0.3205781 0.5709761
0.9616813 0.9616813 0.9616813
0.2114472 0.2857101 0.5584197
0.2408253 0.3070803 0.5568757
0.2666924 0.3082465 0.5552878
0.3247946 0.3116988 0.5516502
0.4057148 0.3184248 0.5463998
0.4945875 0.3284735 0.5402769
0.5710974 0.3417274 0.5340834
0.6736544 0.3963583 0.5720486
0.9616813 0.9616813 0.9616813
0.2500888 0.4035694 0.5416901
0.2921381 0.4167614 0.5420311
0.3117269 0.4173770 0.5412617
0.3581840 0.4191870 0.5394174
0.4277750 0.4228280 0.5365879
0.5078876 0.4284943 0.5330519
0.5777024 0.4367916 0.5295921
0.6830678 0.5042957 0.5761306
0.9616813 0.9616813 0.9616813
0.2933061 0.5140243 0.5316830
0.3485916 0.5215030 0.5327669
0.3638632 0.5218830 0.5323939
0.4012514 0.5229533 0.5314810
0.4601663 0.5250376 0.5300369
0.5281563 0.5281563 0.5281563
0.5903532 0.5345767 0.5281299
0.6989063 0.5991901 0.5854973
0.9616813 0.9616813 0.9616813
0.3396471 0.5985531 0.5298857
0.4113419 0.6041256 0.5328204
0.4238694 0.6044181 0.5327422
0.4551556 0.6052156 0.5325664
0.5057698 0.6067252 0.5323431
0.5585100 0.6089381 0.5321571
0.6099025 0.6121701 0.5322033
0.7232657 0.6824032 0.6022588
0.9616813 0.9616813 0.9616813
0.4643522 0.7343467 0.6082608
0.5676238 0.7431324 0.6162471
0.5774144 0.7435888 0.6165380
0.5992464 0.7447508 0.6172981
0.6309414 0.7467976 0.6186663
0.6700870 0.7499543 0.6207949
0.7130295 0.7544201 0.6238466
0.7571548 0.7603913 0.6279975
0.9616813 0.9616813 0.9616813
0.9616813 0.9616813 0.9616813
0.9616813 0.9616813 0.9616813
0.9616813 0.9616813 0.9616813
0.9616813 0.9616813 0.9616813
0.9616813 0.9616813 0.9616813
0.9616813 0.9616813 0.9616813
0.9616813 0.9616813 0.9616813
0.9616813 0.9616813 0.9616813
0.9616813 0.9616813 0.9616813
0.2132369 0.1397344 0.6679686
0.2131109 0.1396700 0.6676805
0.2109970 0.1385872 0.6627980
0.2087333 0.1374278 0.6574719
0.3178939 0.1519501 0.6459701
0.4401758 0.1740163 0.6339538
0.5411088 0.1958888 0.6232766
0.6301117 0.2256743 0.6287927
0.9616813 0.9616813 0.9616813
0.2130443 0.1396358 0.6675278
0.2158691 0.1457062 0.6667179
0.2457055 0.1511981 0.6632408
0.3123246 0.1651824 0.6562703
0.4003645 0.1864955 0.6474158
0.4934446 0.2117315 0.6381088
0.5722294 0.2391168 0.6293854
0.6688756 0.2900010 0.6556403
0.9616813 0.9616813 0.9616813
0.2143556 0.1693255 0.6613652
0.2278039 0.2092601 0.6571046
0.2556289 0.2121229 0.6547378
0.3182124 0.2199940 0.6496199
0.4032922 0.2335842 0.6426338
0.4949509 0.2516467 0.6348512
0.5727972 0.2730443 0.6272351
0.6702922 0.3231023 0.6554635
0.9616813 0.9616813 0.9616813
0.2337375 0.2870166 0.6442882
0.2592772 0.3085738 0.6425935
0.2825198 0.3098715 0.6412868
0.3365109 0.3136031 0.6382562
0.4141639 0.3206922 0.6337854
0.5011502 0.3311366 0.6284129
0.5755462 0.3447986 0.6227908
0.6747512 0.3977877 0.6557273
0.9616813 0.9616813 0.9616813
0.2670774 0.4046197 0.6298804
0.3062107 0.4185597 0.6295297
0.3246878 0.4192725 0.6288389
0.3691340 0.4213186 0.6271727
0.4368486 0.4253329 0.6245862
0.5151539 0.4314849 0.6212961
0.5827511 0.4400204 0.6176602
0.6843739 0.5049155 0.6581236
0.9616813 0.9616813 0.9616813
0.3071530 0.5163310 0.6198449
0.3605895 0.5246428 0.6202280
0.3754278 0.5250866 0.6198714
0.4119899 0.5263185 0.6189952
0.4701332 0.5286749 0.6175982
0.5361333 0.5321674 0.6157582
0.5949804 0.5370262 0.6136681
0.7003213 0.5993474 0.6647666
0.9616813 0.9616813 0.9616813
0.3506776 0.6000185 0.6143865
0.4198111 0.6050301 0.6152378
0.4320153 0.6052930 0.6150686
0.4625578 0.6060092 0.6146511
0.5116369 0.6073604 0.6139834
0.5623425 0.6093026 0.6130933
0.6121010 0.6121010 0.6121010
0.7246778 0.6823901 0.6777486
0.9616813 0.9616813 0.9616813
0.4740724 0.7341182 0.6828830
0.5729892 0.7429449 0.6894480
0.5824229 0.7434057 0.6896744
0.6035645 0.7445797 0.6902673
0.6343807 0.7466449 0.6913411
0.6726680 0.7498264 0.6930294
0.7148984 0.7543216 0.6954804
0.7584844 0.7603247 0.6988599
0.9616813 0.9616813 0.9616813
0.9616813 0.9616813 0.9616813
0.9616813 0.9616813 0.9616813
0.9616813 0.9616813 0.9616813
0.9616813 0.9616813 0.9616813
0.9616813 0.9616813 0.9616813
0.9616813 0.9616813 0.9616813
0.9616813 0.9616813 0.9616813
0.9616813 0.9616813 0.9616813
0.9616813 0.9616813 0.9616813
0.2782078 0.1730114 0.7872710
0.2778962 0.1728518 0.7868027
0.2726329 0.1701560 0.7787758
0.2669233 0.1672317 0.7698092
0.3758252 0.1809215 0.7625103
0.5061357 0.2026502 0.7542151
0.6011788 0.2264247 0.7466361
0.6724795 0.2530469 0.7402945
0.9616813 0.9616813 0.9616813
0.2777312 0.1727672 0.7865544
0.2807377 0.1787340 0.7865587
0.3100251 0.1841461 0.7843207
0.3805681 0.1985212 0.7796502
0.4795299 0.2215710 0.7734630
0.5694807 0.2493234 0.7666880
0.6418706 0.2817505 0.7603592
0.7024052 0.3177090 0.7549413
0.9616813 0.9616813 0.9616813
0.2778727 0.2016531 0.7810841
0.2923947 0.2460052 0.7803987
0.3206636 0.2494026 0.7787598
0.3880686 0.2587041 0.7751630
0.4842175 0.2747814 0.7701571
0.5717721 0.2957262 0.7644410
0.6431804 0.3219815 0.7589340
0.7033155 0.3527318 0.7541273
0.9616813 0.9616813 0.9616813
0.2970154 0.3342838 0.7698066
0.3252793 0.3619116 0.7705028
0.3503405 0.3636915 0.7695445
0.4105032 0.3686951 0.7673250
0.4991784 0.3779481 0.7640521
0.5793631 0.3910155 0.7601061
0.6475893 0.4089311 0.7561261
0.7062896 0.4316429 0.7525495
0.9616813 0.9616813 0.9616813
0.3328996 0.4760967 0.7600200
0.3778110 0.4944680 0.7615476
0.3988771 0.4955600 0.7610469
0.4503549 0.4985697 0.7598502
0.5259280 0.5040456 0.7580117
0.5945974 0.5118409 0.7557153
0.6569786 0.5226063 0.7533314
0.7126795 0.5362530 0.7511760
0.9616813 0.9616813 0.9616813
0.3773295 0.5889586 0.7539203
0.4420857 0.5992787 0.7559841
0.4597886 0.5998440 0.7557557
0.5033963 0.6013799 0.7552045
0.5601215 0.6041055 0.7543406
0.6166644 0.6081657 0.7532656
0.6717590 0.6139719 0.7521815
0.7232345 0.6216846 0.7512933
0.9616813 0.9616813 0.9616813
0.4328672 0.6732089 0.7524244
0.5175956 0.6803788 0.7548293
0.5307060 0.6807584 0.7547594
0.5609047 0.6817742 0.7545967
0.6003919 0.6834910 0.7543481
0.6456521 0.6861494 0.7540945
0.6928075 0.6899640 0.7539507
0.7390701 0.6950960 0.7540510
0.9616813 0.9616813 0.9616813
0.4989145 0.7433502 0.7557121
0.5870835 0.7490394 0.7583585
0.5958222 0.7493384 0.7583859
0.6152152 0.7500832 0.7584596
0.6440117 0.7514000 0.7586149
0.6799195 0.7534461 0.7589131
0.7195408 0.7563593 0.7594331
0.7602700 0.7602700 0.7602700
0.9616813 0.9616813 0.9616813
0.9616813 0.9616813 0.9616813
0.9616813 0.9616813 0.9616813
0.9616813 0.9616813 0.9616813
0.9616813 0.9616813 0.9616813
0.9616813 0.9616813 0.9616813
0.9616813 0.9616813 0.9616813
0.9616813 0.9616813 0.9616813
0.9616813 0.9616813 0.9616813
0.9616813 0.9616813 0.9616813
0.9616813 0.9616813 0.9616813
0.9616813 0.9616813 0.9616813
0.9616813 0.9616813 0.9616813
0.9616813 0.9616813 0.9616813
0.9616813 0.9616813 0.9616813
0.9616813 0.9616813 0.9616813
0.9616813 0.9616813 0.9616813
0.9616813 0.9616813 0.9616813
0.9616813 0.9616813 0.9616813
0.9616813 0.9616813 0.9616813
0.9616813 0.9616813 0.9616813
0.9616813 0.9616813 0.9616813
0.9616813 0.9616813 0.9616813
0.9616813 0.9616813 0.9616813
0.9616813 0.9616813 0.9616813
0.9616813 0.9616813 0.9616813
0.9616813 0.9616813 0.9616813
0.9616813 0.9616813 0.9616813
0.9616813 0.9616813 0.9616813
0.9616813 0.9616813 0.9616813
0.9616813 0.9616813 0.9616813
0.9616813 0.9616813 0.9616813
0.9616813 0.9616813 0.9616813
0.9616813 0.9616813 0.9616813
0.9616813 0.9616813 0.9616813
0.9616813 0.9616813 0.9616813
0.9616813 0.9616813 0.9616813
0.9616813 0.9616813 0.9616813
0.9616813 0.9616813 0.9616813
0.9616813 0.9616813 0.9616813
0.9616813 0.9616813 0.9616813
0.9616813 0.9616813 0.9616813
0.9616813 0.9616813 0.9616813
0.9616813 0.9616813 0.9616813
0.9616813 0.9616813 0.9616813
0.9616813 0.9616813 0.9616813
0.9616813 0.9616813 0.9616813
0.9616813 0.9616813 0.9616813
0.9616813 0.9616813 0.9616813
0.9616813 0.9616813 0.9616813
0.9616813 0.9616813 0.9616813
0.9616813 0.9616813 0.9616813
0.9616813 0.9616813 0.9616813
0.9616813 0.9616813 0.9616813
0.9616813 0.9616813 0.9616813
0.9616813 0.9616813 0.9616813
0.9616813 0.9616813 0.9616813
0.9616813 0.9616813 0.9616813
0.9616813 0.9616813 0.9616813
0.9616813 0.9616813 0.9616813
0.9616813 0.9616813 0.9616813
0.9616813 0.9616813 0.9616813
0.9616813 0.9616813 0.9616813
0.9616813 0.9616813 0.9616813
0.9616813 0.9616813 0.9616813
0.9616813 0.9616813 0.9616813
0.9616813 0.9616813 0.9616813
0.9616813 0.9616813 0.9616813
0.9616813 0.9616813 0.9616813
0.9616813 0.9616813 0.9616813
0.9616813 0.9616813 0.9616813
0.9616813 0.9616813 0.9616813
0.9616813 0.9616813 0.9616813
0.9616813 0.9616813 0.9616813
0.9616813 0.9616813 0.9616813
0.9616813 0.9616813 0.9616813
0.9616813 0.9616813 0.9616813
0.9616813 0.9616813 0.9616813
0.9616813 0.9616813 0.9616813
0.9616813 0.9616813 0.9616813
0.9616813 0.9616813 0.9616813
0.9616813 0.9616813 0.9616813
0.9616813 0.9616813 0.9616813
0.9616813 0.9616813 0.9616813
0.9616813 0.9616813 0.9616813
0.9616813 0.9616813 0.9616813
0.9616813 0.9616813 0.9616813
0.9616813 0.9616813 0.9616813
0.9616813 0.9616813 0.9616813
0.9616813 0.9616813 0.9616813
0.9616813 0.9616813 0.9616813
