LUTs/GSRT_up_size-33.cube
# This LUT implements the SDR-HLG conversion with using Gamut Squeeze
# Described in the thesis "Evaluation of colour recreation in round-trip conversion" 
# author: Lasse Bickelmann 
# lut-type: III
# input:  BT.709/SDR 
# output:  BT.2100/HLG (limited to P3_limit2020)
# tonemapping: a = 0.5, b=5, c=1.22
# gma_wminde: dL= 1.4, dC=1.1, dH=1.1
# EOTF_sbswc: a=40, b=44, c=0.1
TITLE "GSRT_up"
LUT_3D_SIZE 33
0.0625611 0.0625611 0.0625611
0.0625611 0.0625611 0.0625611
0.0625611 0.0625611 0.0625611
0.0625611 0.0625611 0.0625611
0.0625611 0.0625611 0.0625611
0.0625611 0.0625611 0.0625611
0.0625611 0.0625611 0.0625611
0.0625611 0.0625611 0.0625611
0.0625611 0.0625611 0.0625611
0.0625611 0.0625611 0.0625611
0.0625611 0.0625611 0.0625611
0.0625611 0.0625611 0.0625611
0.0625611 0.0625611 0.0625611
0.1462383 0.0831765 0.0625610
0.2120996 0.0994026 0.0625610
0.2586916 0.1108814 0.0625610
0.2985636 0.1207046 0.0625610
0.3349356 0.1296655 0.0625609
0.3691796 0.1381022 0.0625609
0.4020153 0.1461918 0.0625609
0.4329579 0.1538151 0.0625609
0.4608326 0.1606826 0.0625609
0.4883247 0.1674558 0.0625609
0.5143877 0.1741738 0.0625608
0.5378093 0.1808517 0.0625608
0.5591324 0.1875011 0.0625608
0.5789229 0.1941915 0.0625608
0.6014705 0.2024634 0.0625608
0.6289089 0.2135309 0.0625607
0.6616282 0.2282914 0.0625607
0.7210806 0.2600286 0.0625606
0.9219292 0.5216464 0.1006211
0.9616813 0.9616813 0.9616813
0.0625611 0.0625611 0.0625611
0.0625611 0.0625611 0.0625611
0.0625611 0.0625611 0.0625611
0.0625611 0.0625611 0.0625611
0.0625611 0.0625611 0.0625611
0.0625611 0.0625611 0.0625611
0.0625611 0.0625611 0.0625611
0.0625611 0.0625611 0.0625611
0.1320643 0.0796845 0.0625611
0.1725026 0.0896472 0.0625610
0.2054829 0.0977725 0.0625610
0.2356815 0.1052125 0.0625610
0.2645063 0.1123140 0.0625610
0.2925707 0.1192282 0.0625610
0.3201918 0.1260331 0.0625609
0.3475515 0.1327737 0.0625609
0.3747615 0.1394774 0.0625609
0.4018933 0.1461618 0.0625609
0.4284579 0.1527064 0.0625609
0.4528581 0.1587179 0.0625609
0.4771719 0.1647080 0.0625609
0.5013938 0.1707352 0.0625608
0.5238587 0.1767980 0.0625608
0.5445575 0.1828955 0.0625608
0.5637808 0.1890265 0.0625608
0.5822229 0.1953579 0.0625608
0.6038961 0.2033964 0.0625608
0.6300687 0.2140243 0.0625607
0.6611138 0.2280454 0.0625607
0.6972321 0.2464817 0.0625607
0.7610672 0.2854585 0.0625606
0.9222391 0.5457659 0.1068528
0.9616813 0.9616813 0.9616813
0.0625611 0.0625611 0.0625611
0.0625611 0.0625611 0.0625611
0.0625611 0.0625611 0.0625611
0.0803592 0.0680882 0.0630241
0.1007532 0.0744259 0.0635556
0.1222412 0.0811024 0.0641153
0.1444717 0.0880094 0.0646944
0.1672710 0.0950930 0.0652882
0.1905341 0.1023206 0.0658941
0.2141901 0.1096703 0.0665102
0.2381876 0.1171261 0.0671353
0.2624878 0.1246759 0.0677682
0.2870601 0.1323103 0.0684082
0.3118798 0.1400215 0.0690546
0.3369265 0.1478032 0.0697069
0.3621830 0.1556502 0.0703647
0.3876348 0.1635578 0.0710276
0.4132693 0.1715221 0.0716953
0.4377805 0.1792867 0.0723673
0.4609931 0.1868171 0.0730436
0.4844507 0.1944140 0.0737238
0.5075359 0.2020738 0.0744077
0.5288651 0.2097920 0.0750954
0.5486580 0.2175646 0.0757864
0.5671460 0.2253884 0.0764808
0.5857926 0.2338632 0.0772317
0.6083133 0.2449286 0.0782104
0.6353451 0.2594942 0.0794960
0.6672184 0.2786205 0.0811805
0.7040936 0.3036500 0.0833793
0.7688719 0.3562504 0.0879837
0.9237369 0.6254317 0.1286220
0.9616813 0.9616813 0.9616813
0.0625611 0.0625611 0.0625611
0.0625611 0.0625611 0.0625611
0.0737859 0.0820303 0.0652128
0.0819607 0.0823144 0.0651983
0.1008206 0.0840999 0.0652258
0.1221301 0.0878275 0.0653910
0.1443524 0.0929358 0.0656884
0.1671667 0.0988842 0.0660831
0.1904454 0.1053551 0.0665458
0.2141144 0.1121740 0.0670563
0.2381224 0.1192413 0.0676013
0.2624309 0.1264967 0.0681722
0.2870100 0.1339014 0.0687630
0.3118352 0.1414294 0.0693698
0.3368864 0.1490620 0.0699895
0.3621468 0.1567855 0.0706201
0.3876018 0.1645895 0.0712601
0.4132390 0.1724658 0.0719082
0.4377601 0.1801581 0.0725634
0.4609748 0.1876262 0.0732250
0.4844336 0.1951680 0.0738923
0.5075210 0.2027789 0.0745650
0.5288523 0.2104534 0.0752425
0.5486469 0.2181869 0.0759246
0.5671363 0.2259754 0.0766109
0.5857880 0.2344221 0.0773552
0.6083149 0.2454710 0.0783296
0.6353527 0.2600310 0.0796134
0.6672313 0.2791628 0.0812983
0.7041113 0.3042093 0.0835000
0.7688954 0.3568593 0.0881139
0.9237495 0.6259392 0.1287706
0.9616813 0.9616813 0.9616813
0.0625611 0.0625611 0.0625611
0.0625611 0.0625611 0.0625611
0.0866495 0.1043391 0.0682512
0.0906536 0.1044280 0.0682425
0.1041899 0.1049489 0.0682201
0.1232274 0.1063174 0.0682196
0.1446174 0.1087743 0.0682791
0.1671273 0.1123070 0.0684165
0.1902959 0.1167602 0.0686327
0.2139293 0.1219476 0.0689203
0.2379316 0.1277056 0.0692695
0.2622463 0.1339059 0.0696707
0.2868360 0.1404527 0.0701151
0.3116730 0.1472751 0.0705957
0.3367360 0.1543209 0.0711065
0.3620073 0.1615509 0.0716427
0.3874724 0.1689356 0.0722004
0.4131187 0.1764523 0.0727766
0.4376794 0.1838469 0.0733684
0.4609016 0.1910569 0.0739740
0.4843649 0.1983696 0.0745916
0.5074606 0.2057763 0.0752198
0.5288000 0.2132680 0.0758576
0.5486013 0.2208370 0.0765038
0.5670961 0.2284769 0.0771577
0.5857694 0.2368061 0.0778752
0.6083231 0.2477860 0.0788327
0.6353858 0.2623234 0.0801092
0.6672873 0.2814797 0.0817968
0.7041875 0.3066003 0.0840115
0.7689966 0.3594635 0.0886662
0.9237875 0.6274692 0.1292195
0.9616813 0.9616813 0.9616813
0.0625611 0.0625611 0.0625611
0.0818057 0.1044691 0.0682904
0.1002026 0.1278447 0.0714527
0.1026457 0.1278936 0.0714472
0.1120829 0.1281468 0.0714278
0.1276115 0.1287975 0.0714041
0.1468697 0.1300433 0.0713955
0.1682136 0.1320192 0.0714217
0.1907622 0.1347721 0.0714961
0.2140666 0.1382763 0.0716252
0.2378936 0.1424625 0.0718100
0.2621156 0.1472443 0.0720483
0.2866575 0.1525350 0.0723362
0.3114719 0.1582560 0.0726693
0.3365264 0.1643395 0.0730428
0.3617972 0.1707292 0.0734522
0.3872663 0.1773785 0.0738937
0.4129190 0.1842496 0.0743633
0.4375475 0.1910991 0.0748580
0.4607798 0.1978301 0.0753747
0.4842472 0.2047125 0.0759112
0.5073549 0.2117322 0.0764654
0.5287069 0.2188745 0.0770353
0.5485187 0.2261271 0.0776194
0.5670224 0.2334797 0.0782162
0.5857385 0.2415824 0.0788866
0.6083452 0.2524316 0.0798153
0.6354577 0.2669301 0.0810814
0.6674048 0.2861418 0.0827775
0.7043454 0.3114168 0.0850209
0.7692047 0.3647173 0.0897604
0.9238656 0.6305618 0.1301314
0.9616813 0.9616813 0.9616813
0.0625611 0.0625611 0.0625611
0.0973042 0.1382194 0.0729044
0.1142240 0.1521625 0.0747647
0.1159217 0.1521953 0.0747609
0.1228206 0.1523533 0.0747460
0.1352080 0.1527380 0.0747221
0.1518424 0.1534702 0.0746980
0.1713280 0.1546636 0.0746857
0.1926506 0.1564033 0.0746969
0.2151705 0.1587352 0.0747410
0.2385009 0.1616682 0.0748243
0.2624091 0.1651822 0.0749499
0.2867523 0.1692385 0.0751187
0.3114408 0.1737887 0.0753299
0.3364157 0.1787815 0.0755819
0.3616369 0.1841669 0.0758721
0.3870757 0.1898985 0.0761981
0.4127109 0.1959347 0.0765570
0.4374173 0.2020570 0.0769462
0.4606528 0.2081348 0.0773629
0.4841154 0.2144188 0.0778051
0.5072299 0.2208913 0.0782706
0.5285920 0.2275329 0.0787572
0.5484133 0.2343267 0.0792631
0.5669256 0.2412580 0.0797868
0.5857070 0.2490319 0.0803972
0.6083950 0.2596978 0.0812918
0.6355845 0.2741537 0.0825503
0.6676024 0.2934684 0.0842666
0.7046061 0.3190012 0.0865603
0.7695435 0.3730113 0.0914391
0.9239883 0.6352821 0.1315350
0.9616813 0.9616813 0.9616813
0.0746674 0.0889244 0.0661652
0.1106159 0.1672076 0.0768674
0.1286042 0.1771025 0.0781615
0.1298795 0.1771268 0.0781586
0.1351800 0.1772390 0.0781469
0.1451561 0.1774999 0.0781262
0.1593109 0.1779849 0.0781004
0.1766933 0.1787742 0.0780762
0.1963972 0.1799415 0.0780617
0.2177323 0.1815451 0.0780646
0.2402184 0.1836229 0.0780917
0.2635328 0.1861923 0.0781483
0.2874609 0.1892525 0.0782376
0.3118594 0.1927883 0.0783616
0.3366316 0.1967751 0.0785209
0.3617110 0.2011825 0.0787154
0.3870505 0.2059772 0.0789442
0.4126164 0.2111256 0.0792058
0.4373810 0.2164456 0.0794987
0.4605990 0.2217830 0.0798209
0.4840347 0.2273711 0.0801711
0.5071364 0.2331936 0.0805474
0.5284944 0.2392290 0.0809482
0.5483153 0.2454582 0.0813718
0.5668297 0.2518639 0.0818165
0.5856978 0.2592351 0.0823640
0.6084950 0.2696904 0.0832277
0.6357887 0.2841238 0.0844885
0.6679030 0.3036135 0.0862431
0.7049929 0.3295334 0.0886146
0.7700375 0.3845722 0.0936957
0.9241775 0.6422707 0.1336400
0.9616813 0.9616813 0.9616813
0.1039243 0.1526356 0.0748753
0.1233749 0.1949922 0.0806659
0.1432768 0.2025499 0.0816274
0.1442851 0.2025689 0.0816251
0.1485233 0.2026548 0.0816157
0.1567126 0.2028480 0.0815981
0.1687605 0.2031979 0.0815741
0.1841059 0.2037606 0.0815474
0.2020497 0.2045928 0.0815232
0.2219585 0.2057463 0.0815071
0.2433310 0.2072632 0.0815048
0.2657952 0.2091744 0.0815214
0.2890826 0.2114978 0.0815609
0.3130018 0.2142401 0.0816265
0.3374166 0.2173978 0.0817203
0.3622297 0.2209593 0.0818436
0.3873708 0.2249077 0.0819969
0.4127887 0.2292220 0.0821801
0.4375588 0.2337598 0.0823926
0.4607223 0.2383554 0.0826334
0.4840942 0.2432266 0.0829021
0.5071458 0.2483632 0.0831976
0.5284703 0.2537454 0.0835185
0.5482697 0.2593544 0.0838636
0.5667705 0.2651728 0.0842317
0.5857445 0.2721102 0.0847216
0.6086758 0.2823644 0.0855647
0.6360991 0.2968278 0.0868439
0.6683344 0.3165944 0.0886600
0.7055329 0.3430602 0.0911414
0.7707127 0.3994926 0.0964930
0.9244318 0.6511436 0.1363609
0.9616813 0.9616813 0.9616813
0.1216415 0.1912174 0.0801498
0.1359634 0.2224054 0.0844136
0.1581972 0.2284269 0.0851519
0.1590233 0.2284424 0.0851500
0.1625180 0.2285115 0.0851421
0.1693760 0.2286630 0.0851271
0.1797071 0.2289313 0.0851056
0.1932252 0.2293565 0.0850797
0.2094422 0.2299813 0.0850526
0.2278343 0.2308475 0.0850284
0.2479341 0.2319935 0.0850112
0.2693605 0.2334515 0.0850053
0.2918173 0.2352463 0.0850147
0.3150795 0.2373948 0.0850427
0.3389787 0.2399060 0.0850920
0.3633888 0.2427819 0.0851645
0.3882157 0.2460184 0.0852619
0.4133888 0.2496065 0.0853849
0.4380824 0.2534398 0.0855337
0.4611393 0.2573504 0.0857081
0.4843971 0.2615418 0.0859086
0.5073433 0.2660123 0.0861346
0.5285886 0.2707461 0.0863856
0.5483324 0.2757273 0.0866606
0.5667939 0.2809405 0.0869589
0.5858901 0.2874605 0.0874022
0.6089763 0.2975635 0.0882398
0.6365514 0.3121446 0.0895576
0.6689295 0.3323217 0.0914617
0.7062569 0.3595215 0.0940872
0.7715981 0.4177559 0.0997800
0.9247674 0.6620597 0.1397863
0.9616813 0.9616813 0.9616813
0.1370998 0.2248801 0.0847519
0.1485194 0.2497478 0.0881516
0.1733330 0.2546776 0.0887272
0.1740279 0.2546906 0.0887256
0.1769791 0.2547480 0.0887189
0.1828269 0.2548717 0.0887060
0.1917753 0.2550868 0.0886869
0.2037152 0.2554227 0.0886628
0.2183328 0.2559117 0.0886357
0.2352260 0.2565872 0.0886085
0.2539913 0.2574814 0.0885841
0.2742692 0.2586237 0.0885661
0.2957599 0.2600396 0.0885577
0.3182222 0.2617494 0.0885619
0.3414660 0.2637682 0.0885816
0.3653430 0.2661056 0.0886191
0.3897384 0.2687661 0.0886762
0.4145631 0.2717496 0.0887544
0.4390798 0.2749783 0.0888543
0.4619658 0.2782889 0.0889763
0.4850497 0.2818702 0.0891215
0.5078183 0.2857296 0.0892902
0.5289236 0.2898561 0.0894820
0.5485654 0.2942379 0.0896968
0.5669519 0.2988630 0.0899340
0.5861844 0.3050265 0.0903454
0.6094412 0.3150650 0.0911956
0.6371860 0.3298842 0.0925743
0.6697256 0.3506346 0.0945944
0.7071998 0.3787830 0.0973992
0.7727251 0.4392652 0.1035040
0.9251858 0.6745881 0.1438302
0.9616813 0.9616813 0.9616813
0.1516038 0.2564646 0.0890698
0.1611021 0.2771485 0.0918976
0.1886598 0.2812594 0.0923476
0.1892563 0.2812706 0.0923462
0.1917960 0.2813194 0.0923405
0.1968602 0.2814234 0.0923292
0.2046929 0.2816016 0.0923122
0.2152929 0.2818761 0.0922901
0.2284765 0.2822719 0.0922643
0.2439529 0.2828155 0.0922365
0.2613932 0.2835334 0.0922091
0.2804781 0.2844511 0.0921848
0.3009225 0.2855921 0.0921660
0.3224841 0.2869768 0.0921556
0.3449625 0.2886223 0.0921561
0.3681956 0.2905419 0.0921696
0.3920527 0.2927448 0.0921982
0.4164297 0.2952367 0.0922436
0.4406618 0.2979609 0.0923069
0.4633052 0.3007626 0.0923884
0.4861507 0.3038156 0.0924900
0.5086556 0.3071352 0.0926123
0.5295486 0.3107152 0.0927555
0.5490317 0.3145481 0.0929198
0.5672985 0.3186255 0.0931050
0.5866813 0.3245307 0.0935017
0.6101190 0.3346217 0.0943841
0.6380474 0.3498263 0.0958472
0.6707635 0.3713366 0.0980119
0.7083989 0.4006700 0.1010314
0.7741273 0.4638756 0.1076175
0.9257091 0.6888432 0.1485878
0.9616813 0.9616813 0.9616813
0.1656206 0.2869883 0.0932428
0.1737390 0.3046673 0.0956597
0.2041581 0.3081389 0.0960086
0.2046784 0.3081486 0.0960074
0.2068975 0.3081910 0.0960023
0.2113415 0.3082803 0.0959924
0.2182663 0.3084316 0.0959772
0.2277350 0.3086620 0.0959571
0.2396558 0.3089912 0.0959328
0.2538294 0.3094402 0.0959057
0.2700001 0.3100309 0.0958775
0.2878970 0.3107848 0.0958501
0.3072615 0.3117228 0.0958257
0.3278620 0.3128639 0.0958064
0.3494981 0.3142250 0.0957944
0.3720012 0.3158206 0.0957919
0.3952310 0.3176622 0.0958007
0.4190724 0.3197586 0.0958225
0.4429153 0.3220676 0.0958585
0.4652417 0.3244455 0.0959093
0.4877846 0.3270510 0.0959770
0.5099282 0.3299055 0.0960625
0.5305294 0.3330067 0.0961665
0.5497901 0.3363510 0.0962892
0.5678871 0.3399345 0.0964311
0.5874350 0.3457099 0.0968321
0.6110599 0.3559930 0.0977674
0.6391815 0.3717508 0.0993389
0.6720854 0.3942260 0.1016771
0.7098935 0.4249972 0.1049461
0.7758396 0.4914226 0.1120815
0.9263101 0.7036268 0.1537094
0.9616813 0.9616813 0.9616813
0.1793683 0.3169258 0.0973356
0.1864433 0.3323327 0.0994418
0.2198125 0.3352890 0.0997064
0.2202723 0.3352976 0.0997053
0.2222356 0.3353348 0.0997009
0.2261793 0.3354129 0.0996920
0.2323576 0.3355439 0.0996784
0.2408701 0.3357414 0.0996600
0.2516882 0.3360212 0.0996374
0.2646841 0.3364002 0.0996116
0.2796666 0.3368965 0.0995837
0.2964142 0.3375282 0.0995552
0.3147013 0.3383134 0.0995278
0.3343146 0.3392691 0.0995033
0.3550618 0.3404113 0.0994835
0.3767745 0.3417542 0.0994703
0.3993086 0.3433100 0.0994654
0.4225421 0.3450890 0.0994704
0.4459007 0.3470584 0.0994865
0.4678370 0.3490862 0.0995141
0.4900177 0.3513175 0.0995558
0.5116920 0.3537772 0.0996125
0.5319198 0.3564661 0.0996850
0.5508912 0.3593837 0.0997741
0.5687836 0.3625474 0.0998825
0.5884979 0.3683330 0.1003072
0.6123126 0.3789642 0.1013165
0.6406339 0.3954582 0.1030211
0.6737338 0.4191172 0.1055617
0.7117230 0.4515911 0.1091149
0.7778954 0.5198411 0.1168543
0.9271300 0.7216127 0.1602173
0.9616813 0.9616813 0.9616813
0.1929636 0.3465315 0.1013830
0.1992206 0.3601571 0.1032457
0.2356101 0.3626874 0.1034380
0.2360208 0.3626950 0.1034371
0.2377759 0.3627282 0.1034331
0.2413094 0.3627974 0.1034251
0.2468667 0.3629125 0.1034128
0.2545678 0.3630848 0.1033960
0.2644261 0.3633268 0.1033751
0.2763676 0.3636525 0.1033507
0.2902551 0.3640770 0.1033237
0.3059131 0.3646154 0.1032952
0.3231507 0.3652833 0.1032665
0.3417778 0.3660959 0.1032391
0.3616152 0.3670674 0.1032145
0.3825007 0.3682113 0.1031943
0.4042908 0.3695398 0.1031801
0.4268610 0.3710635 0.1031732
0.4496530 0.3727548 0.1031748
0.4711314 0.3744941 0.1031853
0.4928872 0.3764145 0.1032070
0.5139835 0.3785418 0.1032413
0.5337594 0.3808794 0.1032891
0.5523746 0.3834289 0.1033511
0.5700414 0.3862632 0.1034371
0.5899179 0.3922088 0.1039052
0.6139234 0.4033565 0.1050105
0.6424485 0.4207812 0.1068732
0.6757501 0.4458534 0.1096455
0.7139263 0.4803048 0.1135178
0.7802465 0.5452842 0.1215125
0.9280547 0.7395293 0.1670252
0.9616813 0.9616813 0.9616813
0.2064746 0.3759538 0.1054053
0.2120728 0.3881448 0.1070720
0.2515400 0.3903153 0.1072009
0.2519102 0.3903222 0.1072001
0.2534931 0.3903521 0.1071965
0.2566852 0.3904140 0.1071893
0.2617205 0.3905165 0.1071780
0.2687287 0.3906688 0.1071626
0.2777512 0.3908812 0.1071433
0.2887535 0.3911655 0.1071203
0.3016417 0.3915340 0.1070945
0.3162811 0.3919998 0.1070666
0.3325141 0.3925761 0.1070376
0.3501755 0.3932761 0.1070089
0.3691030 0.3941129 0.1069815
0.3891444 0.3950986 0.1069569
0.4101609 0.3962447 0.1069363
0.4320285 0.3975617 0.1069211
0.4541853 0.3990245 0.1069123
0.4751460 0.4005256 0.1069100
0.4963844 0.4021879 0.1069168
0.5168202 0.4040367 0.1069338
0.5360720 0.4060764 0.1069622
0.5542678 0.4083107 0.1070026
0.5717022 0.4109219 0.1070790
0.5917372 0.4171873 0.1076109
0.6159338 0.4290298 0.1088349
0.6446657 0.4475894 0.1108816
0.6781732 0.4743134 0.1139155
0.7165184 0.5097668 0.1180692
0.7829694 0.5695578 0.1263290
0.9291785 0.7587028 0.1746983
0.9616813 0.9616813 0.9616813
0.2199437 0.4052847 0.1094152
0.2250000 0.4162957 0.1109205
0.2675931 0.4181569 0.1109929
0.2679293 0.4181632 0.1109921
0.2693677 0.4181902 0.1109889
0.2722721 0.4182462 0.1109823
0.2768639 0.4183383 0.1109720
0.2832766 0.4184745 0.1109578
0.2915695 0.4186633 0.1109399
0.3017367 0.4189145 0.1109183
0.3137184 0.4192386 0.1108938
0.3274144 0.4196467 0.1108668
0.3426977 0.4201502 0.1108382
0.3594279 0.4207606 0.1108090
0.3774612 0.4214895 0.1107802
0.3966578 0.4223479 0.1107528
0.4168865 0.4233464 0.1107281
0.4380272 0.4244951 0.1107072
0.4594920 0.4257683 0.1106909
0.4798858 0.4270721 0.1106793
0.5004944 0.4285201 0.1106748
0.5202022 0.4301354 0.1106786
0.5388670 0.4319234 0.1106918
0.5565865 0.4338887 0.1107151
0.5737996 0.4364034 0.1107972
0.5939914 0.4431572 0.1114144
0.6183804 0.4558819 0.1127808
0.6473220 0.4757900 0.1150383
0.6810037 0.5034590 0.1182744
0.7194206 0.5355412 0.1224270
0.7861211 0.5933310 0.1314299
0.9305482 0.7791415 0.1833541
0.9616813 0.9616813 0.9616813
0.2333979 0.4345833 0.1134206
0.2380010 0.4446071 0.1147910
0.2837614 0.4461982 0.1148121
0.2840687 0.4462039 0.1148114
0.2853843 0.4462286 0.1148084
0.2880435 0.4462796 0.1148024
0.2922551 0.4463632 0.1147929
0.2981524 0.4464861 0.1147798
0.3058060 0.4466556 0.1147631
0.3152306 0.4468800 0.1147429
0.3263927 0.4471683 0.1147197
0.3392204 0.4475298 0.1146938
0.3536139 0.4479745 0.1146659
0.3694561 0.4485125 0.1146369
0.3866220 0.4491540 0.1146074
0.4049858 0.4499088 0.1145785
0.4244257 0.4507867 0.1145512
0.4448276 0.4517970 0.1145264
0.4655535 0.4529117 0.1145048
0.4853436 0.4540510 0.1144864
0.5051869 0.4553205 0.1144735
0.5241146 0.4567398 0.1144673
0.5421407 0.4583149 0.1144686
0.5593345 0.4600510 0.1144785
0.5763593 0.4626233 0.1145853
0.5967097 0.4700428 0.1153104
0.6212851 0.4837363 0.1168280
0.6503638 0.5037667 0.1191656
0.6841469 0.5290785 0.1224316
0.7227654 0.5600930 0.1269632
0.7897317 0.6165807 0.1368154
0.9322232 0.8008467 0.1945413
0.9616813 0.9616813 0.9616813
0.2466659 0.4634762 0.1173706
0.2505762 0.4719915 0.1185347
0.2996589 0.4733897 0.1185145
0.2999422 0.4733956 0.1185139
0.3011552 0.4734208 0.1185115
0.3036088 0.4734726 0.1185066
0.3075002 0.4735570 0.1184989
0.3129601 0.4736799 0.1184883
0.3200657 0.4738478 0.1184746
0.3288456 0.4740676 0.1184579
0.3392860 0.4743467 0.1184386
0.3513371 0.4746930 0.1184168
0.3649218 0.4751146 0.1183931
0.3799439 0.4756199 0.1183680
0.3962960 0.4762172 0.1183422
0.4138663 0.4769148 0.1183162
0.4325437 0.4777211 0.1182909
0.4522213 0.4786438 0.1182671
0.4721819 0.4796500 0.1182450
0.4913561 0.4806751 0.1182246
0.5102949 0.4818163 0.1182082
0.5284230 0.4830888 0.1181966
0.5457845 0.4844984 0.1181907
0.5624235 0.4860503 0.1181912
0.5793184 0.4888015 0.1183365
0.5997928 0.4965038 0.1191212
0.6244850 0.5096438 0.1206670
0.6537393 0.5285787 0.1231421
0.6877585 0.5533546 0.1267456
0.7265945 0.5837720 0.1317228
0.7938291 0.6393163 0.1424913
0.9344350 0.8253646 0.2216167
0.9616813 0.9616813 0.9616813
0.2588561 0.4900222 0.1209997
0.2623324 0.4974953 0.1220347
0.3149572 0.4986986 0.1219768
0.3152202 0.4987040 0.1219763
0.3163465 0.4987272 0.1219742
0.3186261 0.4987749 0.1219698
0.3222453 0.4988523 0.1219629
0.3273316 0.4989647 0.1219532
0.3339651 0.4991175 0.1219409
0.3421844 0.4993164 0.1219257
0.3519899 0.4995678 0.1219081
0.3633495 0.4998779 0.1218881
0.3762047 0.5002536 0.1218661
0.3904773 0.5007014 0.1218427
0.4060760 0.5012282 0.1218182
0.4229026 0.5018404 0.1217932
0.4408567 0.5025444 0.1217684
0.4598393 0.5033459 0.1217444
0.4790195 0.5042064 0.1217212
0.4974929 0.5050817 0.1216990
0.5155028 0.5060539 0.1216796
0.5328510 0.5071324 0.1216639
0.5495561 0.5083209 0.1216526
0.5656412 0.5096222 0.1216463
0.5825174 0.5125204 0.1218577
0.6031800 0.5202549 0.1227669
0.6281075 0.5333711 0.1245164
0.6576127 0.5521474 0.1272743
0.6918762 0.5766351 0.1312517
0.7309339 0.6066740 0.1367129
0.7984388 0.6615686 0.1484690
0.9372641 0.8519807 0.2527555
0.9616813 0.9616813 0.9616813
0.2709448 0.5150705 0.1245986
0.2741809 0.5213597 0.1255620
0.3303685 0.5223175 0.1254673
0.3306135 0.5223220 0.1254668
0.3316632 0.5223418 0.1254648
0.3337889 0.5223821 0.1254607
0.3371666 0.5224476 0.1254542
0.3419197 0.5225423 0.1254452
0.3481301 0.5226707 0.1254335
0.3558428 0.5228374 0.1254192
0.3650695 0.5230475 0.1254024
0.3757921 0.5233060 0.1253833
0.3879678 0.5236185 0.1253621
0.4015342 0.5239903 0.1253392
0.4164147 0.5244270 0.1253150
0.4325241 0.5249341 0.1252900
0.4497728 0.5255168 0.1252647
0.4680704 0.5261803 0.1252397
0.4864320 0.5268819 0.1252147
0.5040241 0.5276009 0.1251901
0.5211059 0.5284027 0.1251677
0.5376637 0.5292933 0.1251480
0.5536948 0.5302763 0.1251318
0.5692045 0.5313547 0.1251196
0.5861805 0.5345994 0.1254372
0.6070626 0.5426247 0.1265161
0.6322410 0.5558909 0.1285004
0.6620076 0.5746792 0.1315720
0.6965229 0.5990579 0.1359588
0.7358066 0.6288947 0.1419450
0.8035834 0.6833812 0.1547650
0.9410038 0.8815160 0.2900429
0.9616813 0.9616813 0.9616813
0.2831167 0.5379369 0.1282223
0.2862278 0.5433019 0.1291216
0.3459081 0.5440704 0.1289925
0.3461372 0.5440744 0.1289921
0.3471189 0.5440913 0.1289902
0.3491076 0.5441259 0.1289864
0.3522701 0.5441819 0.1289803
0.3567254 0.5442629 0.1289718
0.3625554 0.5443723 0.1289608
0.3698100 0.5445141 0.1289472
0.3785090 0.5446922 0.1289312
0.3886457 0.5449109 0.1289129
0.4001904 0.5451747 0.1288925
0.4130941 0.5454880 0.1288703
0.4272938 0.5458554 0.1288466
0.4427163 0.5462815 0.1288218
0.4592824 0.5467708 0.1287964
0.4768983 0.5473272 0.1287708
0.4943859 0.5479043 0.1287446
0.5109242 0.5485034 0.1287184
0.5270885 0.5491734 0.1286937
0.5428536 0.5499181 0.1286711
0.5582001 0.5507410 0.1286512
0.5731685 0.5516959 0.1286432
0.5903362 0.5554387 0.1291019
0.6114572 0.5638564 0.1303774
0.6369026 0.5773953 0.1326262
0.6669429 0.5963336 0.1360450
0.7017184 0.6207486 0.1408793
0.7412330 0.6505275 0.1474348
0.8092836 0.7048057 0.1614010
0.9465158 0.9172909 0.3403468
0.9616813 0.9616813 0.9616813
0.2953681 0.5590143 0.1318696
0.3049311 0.5635505 0.1326685
0.3615667 0.5642625 0.1325499
0.3617816 0.5642659 0.1325494
0.3627026 0.5642806 0.1325477
0.3645690 0.5643106 0.1325440
0.3675387 0.5643591 0.1325383
0.3717264 0.5644290 0.1325303
0.3772135 0.5645234 0.1325199
0.3840525 0.5646454 0.1325071
0.3922698 0.5647983 0.1324919
0.4018676 0.5649857 0.1324743
0.4128268 0.5652111 0.1324547
0.4251104 0.5654784 0.1324332
0.4386668 0.5657914 0.1324101
0.4534341 0.5661540 0.1323857
0.4693430 0.5665699 0.1323604
0.4862516 0.5670402 0.1323346
0.5026251 0.5675189 0.1323076
0.5181343 0.5680249 0.1322804
0.5334017 0.5685912 0.1322542
0.5483813 0.5692209 0.1322294
0.5630409 0.5699171 0.1322066
0.5776047 0.5709291 0.1322318
0.5949922 0.5752391 0.1328583
0.6163755 0.5841352 0.1343592
0.6421066 0.5980489 0.1369045
0.6724347 0.6172510 0.1407067
0.7074799 0.6418218 0.1460297
0.7472307 0.6716616 0.1532023
0.8155574 0.7258975 0.1684036
0.9546347 0.9594797 0.4067021
0.9616813 0.9616813 0.9616813
0.3076954 0.5785949 0.1355396
0.3240345 0.5825241 0.1362556
0.3774109 0.5832122 0.1361539
0.3776133 0.5832154 0.1361535
0.3784808 0.5832291 0.1361520
0.3802392 0.5832571 0.1361489
0.3830388 0.5833022 0.1361441
0.3869898 0.5833672 0.1361373
0.3921727 0.5834548 0.1361285
0.3986425 0.5835679 0.1361177
0.4064303 0.5837095 0.1361050
0.4155460 0.5838828 0.1360904
0.4259801 0.5840911 0.1360743
0.4377061 0.5843381 0.1360567
0.4506839 0.5846275 0.1360382
0.4648625 0.5849630 0.1360189
0.4801834 0.5853484 0.1359995
0.4963242 0.5857805 0.1359801
0.5113901 0.5862196 0.1359604
0.5259665 0.5866970 0.1359416
0.5404148 0.5872332 0.1359247
0.5546812 0.5878321 0.1359105
0.5687249 0.5884975 0.1358997
0.5825168 0.5892333 0.1358929
0.6001556 0.5941712 0.1367154
0.6218277 0.6036203 0.1384727
0.6478657 0.6179953 0.1413491
