LUTs/GSRT_up_size-33.cube
# This LUT implements the SDR-HLG conversion with using Gamut Squeeze
# Described in the thesis "Evaluation of colour recreation in round-trip conversion" 
# author: Lasse Bickelmann 
# lut-type: III
# input:  BT.709/SDR 
# output:  BT.2100/HLG (limited to P3_limit2020)
# tonemapping: a = 0.5, b=5, c=1.22
# gma_wminde: dL= 1.4, dC=1.1, dH=1.1
# EOTF_sbswc: a=40, b=44, c=0.1
TITLE "GSRT_up"
LUT_3D_SIZE 5
0.0625611 0.0625611 0.0625611
0.0625611 0.0625611 0.0625611
0.2985636 0.1207046 0.0625610
0.5378093 0.1808517 0.0625608
0.9616813 0.9616813 0.9616813
0.1039243 0.1526356 0.0748753
0.2020497 0.2045928 0.0815232
0.3873708 0.2249077 0.0819969
0.5667705 0.2651728 0.0842317
0.9616813 0.9616813 0.9616813
0.2199437 0.4052847 0.1094152
0.2915695 0.4186633 0.1109399
0.4168865 0.4233464 0.1107281
0.5737996 0.4364034 0.1107972
0.9616813 0.9616813 0.9616813
0.3217515 0.5992519 0.1397242
0.4109755 0.6049787 0.1405612
0.4965206 0.6071587 0.1405490
0.6058332 0.6123832 0.1406851
0.9616813 0.9616813 0.9616813
0.9616813 0.9616813 0.9616813
0.9616813 0.9616813 0.9616813
0.9616813 0.9616813 0.9616813
0.9616813 0.9616813 0.9616813
0.9616813 0.9616813 0.9616813
0.0999289 0.0817002 0.2324810
0.0853187 0.0742171 0.1660452
0.2985636 0.1207046 0.0625610
0.5378093 0.1808517 0.0625608
0.9616813 0.9616813 0.9616813
0.1120048 0.1522193 0.1912172
0.2044348 0.2044348 0.2044348
0.3877335 0.2251240 0.2010841
0.5668623 0.2654732 0.2056608
0.9616813 0.9616813 0.9616813
0.2223787 0.4050317 0.2036075
0.2934856 0.4184220 0.2188293
0.4179078 0.4231990 0.2213565
0.5741860 0.4363799 0.2280096
0.9616813 0.9616813 0.9616813
0.3242718 0.5991053 0.2519156
0.4129705 0.6048445 0.2629577
0.4980010 0.6070455 0.2658377
0.6065127 0.6123093 0.2724709
0.9616813 0.9616813 0.9616813
0.9616813 0.9616813 0.9616813
0.9616813 0.9616813 0.9616813
0.9616813 0.9616813 0.9616813
0.9616813 0.9616813 0.9616813
0.9616813 0.9616813 0.9616813
0.1569785 0.1109200 0.4918954
0.1535507 0.1091643 0.4763113
0.3019380 0.1316301 0.4266270
0.5382345 0.1854438 0.3949542
0.9616813 0.9616813 0.9616813
0.1601220 0.1559756 0.4726581
0.2221060 0.2056820 0.4601230
0.3915866 0.2272757 0.4398128
0.5679011 0.2673899 0.4215683
0.9616813 0.9616813 0.9616813
0.2371494 0.4041560 0.4241349
0.3030063 0.4177952 0.4269088
0.4229450 0.4229450 0.4229450
0.5759560 0.4365530 0.4180291
0.9616813 0.9616813 0.9616813
0.3322293 0.5988058 0.4241896
0.4185908 0.6046138 0.4297475
0.5020230 0.6068710 0.4302017
0.6082549 0.6122309 0.4319803
0.9616813 0.9616813 0.9616813
0.9616813 0.9616813 0.9616813
0.9616813 0.9616813 0.9616813
0.9616813 0.9616813 0.9616813
0.9616813 0.9616813 0.9616813
0.9616813 0.9616813 0.9616813
0.2132369 0.1397344 0.6679686
0.2109970 0.1385872 0.6627980
0.3178939 0.1519501 0.6459701
0.5411088 0.1958888 0.6232766
0.9616813 0.9616813 0.9616813
0.2143556 0.1693255 0.6613652
0.2556289 0.2121229 0.6547378
0.4032922 0.2335842 0.6426338
0.5727972 0.2730443 0.6272351
0.9616813 0.9616813 0.9616813
0.2670774 0.4046197 0.6298804
0.3246878 0.4192725 0.6288389
0.4368486 0.4253329 0.6245862
0.5827511 0.4400204 0.6176602
0.9616813 0.9616813 0.9616813
0.3506776 0.6000185 0.6143865
0.4320153 0.6052930 0.6150686
0.5116369 0.6073604 0.6139834
0.6121010 0.6121010 0.6121010
0.9616813 0.9616813 0.9616813
0.9616813 0.9616813 0.9616813
0.9616813 0.9616813 0.9616813
0.9616813 0.9616813 0.9616813
0.9616813 0.9616813 0.9616813
0.9616813 0.9616813 0.9616813
0.9616813 0.9616813 0.9616813
0.9616813 0.9616813 0.9616813
0.9616813 0.9616813 0.9616813
0.9616813 0.9616813 0.9616813
0.9616813 0.9616813 0.9616813
0.9616813 0.9616813 0.9616813
0.9616813 0.9616813 0.9616813
0.9616813 0.9616813 0.9616813
0.9616813 0.9616813 0.9616813
0.9616813 0.9616813 0.9616813
0.9616813 0.9616813 0.9616813
0.9616813 0.9616813 0.9616813
0.9616813 0.9616813 0.9616813
0.9616813 0.9616813 0.9616813
0.9616813 0.9616813 0.9616813
0.9616813 0.9616813 0.9616813
0.9616813 0.9616813 0.9616813
0.9616813 0.9616813 0.9616813
0.9616813 0.9616813 0.9616813
0.9616813 0.9616813 0.9616813
0.9616813 0.9616813 0.9616813
0.9616813 0.9616813 0.9616813
0.9616813 0.9616813 0.9616813
0.9616813 0.9616813 0.9616813
0.9616813 0.9616813 0.9616813
